!!!COM: Beethoven, Ludwig van
!!!CDT: 1770///-1827///
!!!OTL: Piano Sonata no. 29 in B-flat major
!!!OTP: hammerklavier
!!!OPS: 106
!!!OMV: 1
!!!OMD: Allegro
!!!AGN: Sonata Form
**kern	**kern	**dynam
*staff2	*staff1	*staff1/2
*Ipiano	*Ipiano	*Ipiano
*>[A,A,B]	*>[A,A,B]	*>[A,A,B]
*>norep[A,B]	*>norep[A,B]	*>norep[A,B]
*>A	*>A	*>A
*clefF4	*clefG2	*clefG2
*k[b-e-]	*k[b-e-]	*k[b-e-]
*B-:	*B-:	*B-:
*M2/2	*M2/2	*M2/2
*MM138	*MM138	*MM138
=	=	=
8BBB-/	8r	ff
=1	=1	=1
4.F\ 4.B-\ 4.d\	4r	.
.	8r	.
8F\ 8B-\ 8d\	8dd\ 8ff\ 8bb-\ 8ddd\	ff
4F'\ 4B-'\ 4d'\	4dd'\ 4ff'\ 4bb-'\ 4ddd'\	.
8F'\ 8B-'\ 8d'\L	8dd'\ 8ff'\ 8bb-'\ 8eee-'\L	.
8F'\ 8B-'\ 8d'\J	8dd'\ 8ff'\ 8bb-'\ 8ddd'\J	.
=2	=2	=2
4F'\ 4B-'\ 4d'\	4dd'\ 4ff'\ 4bb-'\ 4ddd'\	.
4D'\ 4F'\ 4B-'\	4b-'\ 4dd'\ 4ff'\ 4bb-'\	.
4r	2r	.
8r	.	.
8BBB-/	.	.
=3	=3	=3
4.F\ 4.B-\ 4.d\ 4.f\	4r	.
.	8r	.
8F\ 8B-\ 8d\ 8f\	8ff\ 8bb-\ 8ddd\ 8fff\	.
4F'\ 4B-'\ 4d'\ 4f'\	4ff'\ 4bb-'\ 4ddd'\ 4fff'\	.
8F'\ 8B-'\ 8d'\ 8f'\L	8ff'\ 8bb-'\ 8ddd'\ 8ggg'\L	.
8F'\ 8B-'\ 8d'\ 8f'\J	8ff'\ 8bb-'\ 8ddd'\ 8fff'\J	.
=4	=4	=4
4F'\ 4B-'\ 4d'\ 4f'\	4ff'\ 4bb-'\ 4ddd'\ 4fff'\	.
4F'\ 4B-'\ 4d'\	4dd'\ 4ff'\ 4bb-'\ 4ddd'\	.
4r;	4r;	.
4r	(8b-/L	p
.	8cc/J	.
=5	=5	=5
*	*^	*
4r	2dd/	4r	.
4en\	.	4g\	.
4f\	4cc/)	4a\	.
4Bn\	(8cc/L	4a-\	.
.	8dd/J	.	.
=6	=6	=6	=6
4c\	2ee-/	4g\	.
4F#\	.	4an\	.
4G\	4dd/)	4b-\	.
4E-\	(8dd/L	4g\	.
.	8ee-/J	.	.
=7	=7	=7	=7
4D\	4.ff/	4f\	.
4D-\	.	4b-\	.
.	8gg/	.	.
4C/	8ff/	4g\	.
.	4ee-/	.	.
4FF/	.	4a\	.
.	8ff/	.	.
=8	=8	=8	=8
4BB-/	8ee-/L	4f\ 4b-\	.
.	8dd/	.	.
4EE-/	8ff/	4g\ 4cc\	.
.	8ee-/J	.	.
4FF;/	4cc;/)	4a;\	.
*	*8va	*8va	*
4r	(8bb-/L	4r	p
.	8ccc/J	.	.
*clefG2	*	*	*
=9	=9	=9	=9
4r	2ddd/	4r	.
4een\	.	4gg\	>
*	*v	*v	*
*	*^	*
4ff\	4ccc/)	4aa\	mp
4bn\	(8ccc/L	4aa-\	.
.	8ddd/J	.	.
=10	=10	=10	=10
4cc\	2eee-/	4gg\	.
4f#/	.	4aan\	.
4g/	4ddd/)	4bb-\	.
4e-/	(8ddd/L	4gg\	.
.	8eee-/J	.	.
*clefF4	*	*	*
=11	=11	=11	=11
4d\	4.fff/	4ff\	.
4d-\	.	4bb-\	.
.	8ggg/	.	.
4c\	8fff/	4gg\	.
.	4eee-/	.	.
4F\	.	4aa\	.
.	8fff/	.	.
=12	=12	=12	=12
4B-\	8eee-/	4ff\	.
.	4ddd/)	.	.
4G-\	.	[4bb-\	.
.	8eee-/	.	.
4F\	(8ddd/L	4bb-\]	.
.	8ccc/	.	.
4E-\	8ddd/	4ff\ 4aa\	.
.	8eee-/J	.	.
=13	=13	=13	=13
4D\	8ggg/L	4ff\ 4bb-\	.
.	8fff/	.	.
4D-\	8ggg/	4bb-\	.
.	8fff/J	.	.
4C/	8fff/L	4gg\	.
.	8eee-/	.	.
4FF/	8fff/	4aa\	.
.	8eee-/J	.	.
=14	=14	=14	=14
4BB-/	8eee-/L	4ff\	.
.	8ddd/	.	.
4GG-/	8eee-/	2bb-\	.
.	8ddd/J	.	.
4FF/	8ddd/L)	.	.
.	8ccc/	.	.
4EE-/	8ddd/	4ff\ 4aa\	.
.	8eee-/J	.	.
=15	=15	=15	=15
4DD/	(8ggg/L	4ff\ 4bb-\	.
.	8fff/J)	.	.
4DD-/	8r	4bb-\ 4eeen\	.
.	[8ggg/	.	.
4CC/	(8ggg/]	4eee-\	.
.	4aaa-/	.	.
4FFF#/	.	4ccc\ 4eee-\	.
.	8aaan/)	.	.
=16	=16	=16	=16
4GGG/	(8cccc/L	4bb-\ 4ddd\	f
.	8bbb-/	.	.
4EE-/	8aaa/	4bb-\ 4eee-\	.
.	8ggg/J)	.	.
4FF'/	4fff'/	4bb-\ 4ddd\	.
4FFF/ 4FF/	4fff'/ 4aaa'/	4aa\ 4ccc\	.
*	*v	*v	*
=17	=17	=17
8BBB-/ 8BB-/	2bb-\ 2ddd\ 2fff\ 2bbb-\	f
*	*X8va	*
8F\ 8B-\ 8d\L	.	.
8F\ 8B-\ 8d\	.	.
8F\ 8B-\ 8d\J	.	.
8r	2b-\ 2dd\ 2bb-\	.
8D\ 8F\ 8B-\L	.	.
8D\ 8F\ 8B-\	.	.
8D\ 8F\ 8B-\J	.	.
=18	=18	=18
8r	4dd'\ 4ff'\ 4ddd'\	p
8F\ 8B-\ 8d\L	.	.
8r	4b-'\ 4dd'\ 4bb-'\	.
8D\ 8F\ 8B-\J	.	.
8r	4dd'\ 4ff'\ 4ddd'\	.
8F\ 8B-\ 8d\L	.	.
8r	4cc'\ 4ee-'\ 4ccc'\	.
8E-\ 8B-\ 8c\J	.	.
=19	=19	=19
8BBB-/ 8BB-/	2ee-\ 2gg\ 2eee-\	f
8G\ 8B-\ 8e-\L	.	.
8G\ 8B-\ 8e-\	.	.
8G\ 8B-\ 8e-\J	.	.
8r	2cc'\ 2ee-'\ 2ccc'\	.
8E-\ 8B-\ 8c\L	.	.
8E-\ 8B-\ 8c\	.	.
8E-\ 8B-\ 8c\J	.	.
=20	=20	=20
8r	4ee-'\ 4gg'\ 4eee-'\	p
8G\ 8B-\ 8e-\L	.	.
8r	4cc#'\ 4een'\ 4ccc#'\	.
8En\ 8B-\ 8c#\J	.	.
8r	4ee-'\ 4gg-'\ 4eee-'\	.
8G-\ 8B-\ 8e-\L	.	.
8r	4dd'\ 4ff'\ 4ddd'\	.
8F\ 8B-\ 8d\J	.	.
=21	=21	=21
8BBB-/ 8BB-/	2ff\ 2aa-\ 2fff\	f
8A\ 8B-\ 8f\L	.	.
8A\ 8B-\ 8f\	.	.
8A\ 8B-\ 8f\J	.	.
8r	2dd\ 2ff\ 2ddd\	.
8F\ 8B-\ 8d\L	.	.
8F\ 8B-\ 8d\	.	.
8F\ 8B-\ 8d\J	.	.
=22	=22	=22
*	*8va	*
8r	4ff'\ 4aa-'\ 4fff'\	p
8A-\ 8B-\ 8f\L	.	.
8r	4dd'\ 4ff#'\ 4ddd'\	.
8F#\ 8B-\ 8d\J	.	.
8r	4ffn'\ 4aa-'\ 4fffn'\	.
8A-\ 8B-\ 8fn\L	.	.
8r	4ee-'\ 4gg'\ 4eee-'\	.
8G\ 8B-\ 8e-\J	.	.
=23	=23	=23
8BBB-/ 8BB-/	2gg\ 2bb-\ 2ggg\	f
*clefG2	*	*
8B-/ 8e-/ 8g/L	.	.
8B-/ 8e-/ 8g/	.	.
8B-/ 8e-/ 8g/J	.	.
*clefF4	*	*
8r	2ee-\ 2gg\ 2bb-\ 2eee-\	.
8G\ 8B-\ 8e-\L	.	.
8G\ 8B-\ 8e-\	.	.
8G\ 8B-\ 8e-\J	.	.
*clefG2	*	*
=24	=24	=24
8r	4gg'\ 4bb-'\ 4ggg'\	p
8B-/ 8e-/ 8g/L	.	.
8r	4een'\ 4bb-'\ 4eeen'\	.
8B-/ 8c#/ 8en/J	.	.
8r	4gg-'\ 4bb-'\ 4ggg-'\	.
8B-/ 8e-/ 8g-/L	.	.
8r	4ff'\ 4bb-'\ 4fff'\	.
8B-/ 8d/ 8f/J	.	.
=25	=25	=25
8r	4aa-'\ 4bb-'\ 4aaa-'\	.
8B-/ 8f/ 8a-/L	.	.
8r	4ff#'\ 4bb-'\ 4fff'\	.
8B-/ 8d/ 8f#/J	.	.
8r	4aa-'\ 4bb-'\ 4aaa-'\	.
8B-/ 8fn/ 8a-/L	.	.
8r	4gg'\ 4bb-'\ 4ggg'\	.
8B-/ 8e-/ 8g/J	.	.
=26	=26	=26
8r	4bb-'\ 4eee-'\ 4ggg'\ 4bbb-'\	.
8B-/ 8c/ 8e-/ 8b-/L	.	.
8r	4gg#'\ 4ggg#'\	.
8B-/ 8c/ 8e-/ 8g#/J	.	.
8r	4bb-'\ 4bbb-'\	.
8B-/ 8c/ 8e-/ 8b-/L	.	.
8r	4aa'\ 4aaa'\	.
8B-/ 8c/ 8e-/ 8a/J	.	.
=27	=27	=27
8r	4ccc'\ 4cccc'\	.
8c/ 8cc/L	.	.
8r	4bb-'\ 4bbb-'\	.
8B-/ 8b-/J	.	.
*clefF4	*	*
8r	4ggn'\ 4gggn'\	.
8Gn\ 8gn\L	.	.
8r	4ff'\ 4fff'\	.
8F\ 8f\J	.	.
=28	=28	=28
8r	4ee-'/ 4eee-'/	.
8E-\ 8e-\L	.	.
8r	4dd'/ 4ddd'/	.
8D\ 8d\J	.	.
8r	4cc'/ 4ccc'/	.
8C\ 8c\L	.	.
8r	4b-'/ 4bb-'/	.
8BB-\ 8B-\J	.	.
*	*X8va	*
=29	=29	=29
8r	4g'/ 4gg'/	.
8GG/ 8G/L	.	.
8r	4f'/ 4ff'/	.
8FF/ 8F/J	.	.
8r	4e-'/ 4ee-'/	.
8EE-/ 8E-/L	.	.
8r	4d'/ 4dd'/	.
8DD/ 8D/J	.	.
=30	=30	=30
8r	4c'/ 4cc'/	.
8CC/ 8C/L	.	.
8r	4B-'/ 4b-'/	.
8BBB-/ 8BB-/J	.	.
8r	4G'/ 4g'/	.
8GGG/ 8GG/L	.	.
8r	4F'/ 4f'/	.
8FFF/ 8FF/J	.	.
=31	=31	=31
8r	4a/	>
8AAA/L	.	.
8r	4f/	.
8FFF/J	.	.
8r	4cc/	.
8CC/L	.	.
8r	4f/	.
8FFF/J	.	.
=32	=32	=32
8r	4ff\	.
8FF/L	.	.
8r	4f/	p
8FFF/J	.	.
8r	4aa\	.
8AA/L	.	.
8r	4f/	.
8FFF/J	.	.
=33	=33	=33
8r	4ccc\	.
8C/L	.	.
8r	4f/	.
8FFF/J	.	.
8r	4fff\	.
8F/L	.	.
8r	4f/	.
8FFF/J	.	.
=34	=34	=34
8r	4fff\	pp
8F/L	.	.
8r	4f/	.
8FFF/J	.	.
8r	4fff\	f
8F/L	.	.
8r	4r	.
8BBB-/J	.	.
=35	=35	=35
4.F\ 4.B-\ 4.d\	4r	.
.	8r	.
8F'\ 8B-'\ 8d'\	8dd'\ 8ff'\ 8bb-'\ 8ddd'\	.
4F'\ 4B-'\ 4d'\	4dd'\ 4ff'\ 4bb-'\ 4ddd'\	.
8F'\ 8B-'\ 8d'\L	8dd'\ 8ff'\ 8bb-'\ 8eee-'\L	.
8F'\ 8B-'\ 8d'\J	8dd'\ 8ff'\ 8bb-'\ 8ddd'\J	.
=36	=36	=36
4F'\ 4B-'\ 4d'\	4dd'\ 4ff'\ 4bb-'\ 4ddd'\	.
4D'\ 4F'\ 4B-'\	4b-'\ 4dd'\ 4ff'\ 4bb-'\	.
4r	2r	.
8r	.	.
8BBB-/	.	.
=37	=37	=37
4.D\ 4.F\ 4.B-\ 4.d\	4r	.
.	8r	.
8D\ 8F\ 8B-\ 8d\	8dd\ 8ff\ 8bb-\ 8ddd\	.
4D'\ 4d'\	4dd'\ 4ddd'\	.
8D'\ 8F#'\ 8A'\ 8d'\L	8dd'\ 8ff#'\ 8aa'\ 8ddd'\L	.
8D'\ 8F#'\ 8A'\ 8d'\J	8dd'\ 8ff#'\ 8aa'\ 8ddd'\J	.
=38	=38	=38
4D'\ 4F#'\ 4A'\ 4d'\	4dd'\ 4ff#'\ 4aa'\ 4ddd'\	.
4D'\ 4F#'\ 4A'\ 4d'\	4dd'\ 4ff#'\ 4aa'\ 4ddd'\	.
4r	4r	.
8r;	8r;	.
(8D\	8r	p
=39	=39	=39
4.d\)	4r	.
.	4f#/ 4a/ 4dd/	p
8D\	.	.
4.d\	4r	.
.	4f#/ 4a/ 4dd/	.
8D\	.	.
=40	=40	=40
4.d\	4r	.
.	4f#/ 4a/ 4dd/	.
8D\	.	.
4.d\	4r	.
.	4f#/ 4a/ 4dd/	.
8D\	.	.
=41	=41	=41
4.A\ 4.c\	4r	.
.	4a\ 4cc\ 4dd\ 4ff#\	<
8D\	.	.
4.A\ 4.c\	4r	.
.	4a\ 4cc\ 4dd\ 4ff#\	.
8D\	.	.
=42	=42	=42
4.F#\ 4.A\	4r	.
.	4a\ 4cc\ 4ff#\ 4aa\	.
8D\	.	.
4.AA/	4r	.
.	4cc\ 4ff#\ 4aa\ 4ccc\	.
8D\	.	.
=43	=43	=43
4.AA/	4r	.
*	*8va	*
.	4ff#\ 4aa\ 4ccc\ 4fff#\	.
8D/	.	.
4.GG/	4r	.
.	4aa\ 4ccc\ 4aaa\	.
8D/	.	.
=44	=44	=44
4.FF#/	4r	.
.	4ccc\ 4aaa\ 4cccc\	.
8D/	.	.
4.EE-/	4r	.
.	4ccc\ 4fff#\ 4aaa\ 4cccc\	.
8D/	.	.
=45	=45	=45
*k[f#]	*k[f#]	*k[f#]
4DD/ 4D/	4ccc\ 4fff#\ 4aaa\ 4cccc\	.
*	*X8va	*
*clefG2	*	*
8ee-\L	8aa\ (8ccc\L	.
8dd\J	8gg#\ 8bbn\J	.
4ee-\	4aa\ 4ccc\)	.
8dd\L	(8f#/ 8a/L	.
8cc#\J	8gn/ 8b-/J	.
=46	=46	=46
4dd\	4f#/) 4a/	.
(8e-/L	8aa\ (8ccc\L	.
8d/J	8gg#\ 8bbn\J	.
4e-/)	4aa\ 4ccc\)	.
*	*8va	*
(8d/L	(8fff#\L	.
8c#/J	8aaa\J)	.
=47	=47	=47
4d/)	8cccc\L	p
.	8dddd\	.
*clefF4	*	*
8r	8cccc\	.
(8D\	8bbb\J	.
4F#\)	8cccc\L	.
.	8dddd\	.
8r	8eeee\	.
(8A\	8cccc\J	.
=48	=48	=48
4c\)	8aaa\L	.
.	8bbb\	.
*clefG2	*	*
8r	8cccc\	.
(8f#/	8aaa\J	>
4a/)	8fff#\L	.
.	8ggg\	.
(8cc/L	8aaa\	.
8a/J)	8fff#\J	.
*	*X8va	*
=49	=49	=49
8aa\L	(8ccc\L	p
8bb\	8ddd\	.
8ccc\	8eee\	.
8aa\J	8ccc\J	.
8cc\L	8aa\L	.
8dd\	8bb\	.
8ee\	8ccc\	.
8cc\J	8aa\J	.
=50	=50	=50
8a/L	8ff#\L	.
8b/	8gg\	.
8cc/	8aa\	.
8a/J	8ff#\J	.
8f#/L	4a\ 4cc\ 4dd\)	.
8g/	.	.
8a/	4r	.
8f#/J	.	.
=51	=51	=51
*	*8va	*
4d/ 4g/ 4b/	(8bbb\L	<
.	8cccc\	.
*clefF4	*	*
8r	8bbb\	.
8D\	8aaa\J	.
4G\	8bbb\L	.
.	8cccc\	.
8r	8dddd\	.
8B\	8bbb\J	.
=52	=52	=52
4d\	8ggg\L	.
.	8aaa\	.
*clefG2	*	*
8r	8bbb\	.
(8g/	8ggg\J	>
4b/)	8ddd\L	.
.	8fff#\	.
8r	8ggg\	.
8dd\	8ddd\J)	.
*	*X8va	*
=53	=53	=53
8gg\L	(8bb\L	p
8aa\	8ccc\	.
8bb\	8ddd\	.
8gg\J	8bb\J	.
8b\L	8gg\L	.
8cc\	8aa\	.
8dd\	8bb\	.
8b\J	8gg\J	.
=54	=54	=54
8g/L	8dd\L	.
8a/	8ff#\	.
8b/	8gg\	.
8g/J	8b\J	.
8b\L	8g/L	.
8cc\	8a/	.
8dd\	8b/	.
8b\J	8g/J)	.
=55	=55	=55
8cc\L	4d/ 4f#/ 4a/	<
8dd\	.	.
8cc\	(8eee\L	.
8b\J	8ddd\J	.
8cc\L	8eee\L	.
8dd\	8ddd\	.
8ee\	8ccc\	.
8cc\J	8eee\J	.
=56	=56	=56
8a/L	8ccc\L	.
8b/	8bb\	.
8cc/	8aa\	.
8a/J	8ccc\J	>
8f#/L	8aa\L	.
8g/	8gg\	.
8a/	8ff#\	.
8f#/J	8aa\J)	.
*clefF4	*	*
=57	=57	=57
8c\L	(8ee\L	p
8d\	8dd\	.
8e\	8cc\	.
8c\J	8ee\J	.
8A\L	8cc\L	.
8B\	8b\	.
8c\	8a\	.
8A\J	8cc\J	.
=58	=58	=58
8F#\L	8a/L	.
8G\	8g/	.
8A\	8f#/	.
8F#\J	8a/J	.
*clefG2	*	*
8a/L	8cc/L	.
8g/	8b/	.
8f#/	8a/	.
8a/J	8cc/J)	.
=59	=59	=59
8b/L	4d/ 4g/	p
8cc/	.	.
*	*8va	*
8b/	(8dddd\L	.
8a/J	8cccc\J	.
8b/L	8dddd\L	.
8cc/	8cccc\	.
8dd/	8bbb\	.
8b/J	8dddd\J	.
=60	=60	=60
8g/L	8bbb\L	.
8a/	8aaa\	.
8b/	8ggg\	.
8g/J	8bbb\J	.
*	*X8va	*
8d/L	8bb\L	.
8f#/	8aa\	.
8g/	8gg\	.
8d/J	8bb\J)	.
*clefF4	*	*
=61	=61	=61
8B\L	(8dd\L	p
8c\	8cc\	.
8d\	8b\	.
8B\J	8dd\J	.
8G\L	8bb\L	.
8A\	8aa\	.
8B\	8gg\	.
8G\J	8bb\J	<
=62	=62	=62
8D\L	8ddd\L	.
8F#\	8ccc\	.
8G\	8bb\	.
8D\J	8ddd\J	.
8C\L	4eee\	>
8G\	.	.
(8D\	4aa\ 4ddd\ 4fff#\)	.
8C\J	.	.
=63	=63	=63
4BB/	4gg\ 4ddd\ 4ggg\	p
4GG\ 4G\	4r	.
8C\ 8E\)	2r	.
8r	.	.
(8c\L	.	.
8A\J	.	.
=64	=64	=64
4F#\	4r	.
4D\ 4d\	4f#/ 4a/	.
8G\ 8B\)	8g/ 8b/	.
8r	8r	.
*clefG2	*	*
*	*8va	*
[4G\ [4e\	8bb\ 8ggg\L	.
.	8aa\ 8fff#\J	.
=65	=65	=65
*^	*	*
4r	4G/] 4e/]	4bb\ 4ggg\	.
(4e/	4G\	4gg\ 4bb\ 4eee\	.
4f#/	4A\	4ff#/ 4aa/ 4ddd/	.
8g/L	4A\	4ee/ 4gg/ 4ccc#/	.
8a/J	.	.	.
=66	=66	=66	=66
*	*	*^	*
4a/	2.d\	4gg/ 4eee/	2.r	.
8.b/L	.	4ff#/ 4ddd/	.	.
16cc#/Jk	.	.	.	.
4dd/)	.	4ff#/ 4ddd/	.	.
(8ee\L	4r	8ddd/L	8gg\L	.
8ff#\J	.	8cccn/J	8aa\J	.
*v	*v	*	*	*
=67	=67	=67	=67
4gg\	4bb/	4r	.
4b\ 4dd\	4ggg/	4.gg\	.
8cc\ 8ee\)	8eee/	.	.
8r	8r	8r	.
(8a\L	8cccc/L	8ccc\L	.
8cc\J	8aaa/J	8eee\J	.
=68	=68	=68	=68
4dd\	4fff#/	4r	.
4f#/ 4a/	4dddd/	4.ddd\	.
8g/ 8b/)	8bbb/	.	.
8r	8r	8r	.
4r	8ggg/L	4r	.
.	8fff#/J	.	.
*	*v	*v	*
=69	=69	=69
*^	*	*
4e/ 4g/ (4b/	4r	4ggg\	.
4e/ 4g/ 4cc/	4r	4eee\	.
4e/ 4cc/	8g\L	4ccc\	.
*	*	*X8va	*
.	8a\J	.	.
4d#/ 4f#/ 4b/)	4r	4ff#\ 4bb\	.
*v	*v	*	*
=70	=70	=70
*	*^	*
(4d#/ 4f#/ 4b/	2.bb/	4ff#\	.
4B/ 4d#/	.	(8aa\L	.
.	.	8gg\J)	.
4e/ 4g/	.	4gg\	.
8dn/ 8fn/L	4bb-/ 4eee/	[4gg\	.
8c#/ 8e/J	.	.	.
=71	=71	=71	=71
4c#/ 4e/	2.aa/	4gg\]	.
4A/ 4c#/	.	8gg\L	.
.	.	8ffn\J	.
4d/ 4fn/	.	4ff\	.
8cn/ 8e-/L	4aa-/ 4ddd/	[4ffn\	.
8B/) 8d/J	.	.	.
*clefF4	*	*	*
=72	=72	=72	=72
4B\ (4d\	2.gg/	4ffn\]	.
4G\ 4B\	.	(8ff\L	.
.	.	8ee\J)	.
4c\ 4en\	.	4ee\	.
8B\ 8d\L	4gg/ 4ccc#/	[4ee\	.
8A#\ 8c#\J)	.	.	.
=73	=73	=73	=73
4A#\ (4c#\	2.ff#/	4ee\]	.
4F#\ 4A#\	.	(8ee\L	.
.	.	8dd#\J)	.
4B\ 4dn\	.	4ddn\	.
8An\ 8cn\L	4ffn/ 4bb/	4dd\	.
8G#\ 8B\J)	.	.	.
=74	=74	=74	=74
*^	*	*	*
4B/	4G#\	(8ffn/	4dd\	.
.	.	4ee/	.	.
4e/	8A\L	.	4cc#\	.
.	8Gn\J	8aa/)	.	.
4A/	4F#\	(8ee-/	4ccn\	.
.	.	4dd/	.	.
4B/	8G\L	.	4b\	.
.	8BB\J	(8gg/)	.	.
*v	*v	*	*	*
*	*v	*v	*
=75	=75	=75
[1AA [1D [1c	8dd\L	<
.	8ddd\	.
.	8ccc#\	.
.	8cccn\J	.
.	8aa\L	.
.	8ff#\	.
.	8ee-\	.
.	8dd\J)	.
=76	=76	=76
*	*^	*
2AA\] 2D\] 2c\]	(8cc#/L	2r	.
.	8ccn/	.	.
.	8a/	.	.
.	8f#/J)	.	.
2BB\ 2D\ 2B\	4g^/	8e-\L	.
.	.	8d\J	.
.	8een^/L	4g^\	.
.	8dd/J	.	.
*	*v	*v	*
=77	=77	=77
[1AA [1D [1c	(8dd\L	<
.	8ddd\	.
.	8ccc#\	.
.	8cccn\J	.
.	8aa\L	.
.	8ff#\	.
.	8ee-\	.
.	8dd\J	.
=78	=78	=78
*	*^	*
2AA\] 2D\] 2c\]	8cc#/L	2r	.
.	8ccn/	.	.
.	8a/	.	.
.	8f#/J)	.	.
2BB\ 2D\ 2B\	4g^/	8e-\L	.
.	.	8d\J	.
.	(8een^/L	4g^\	.
.	8dd/J)	.	.
=79	=79	=79	=79
2BBB/ 2BB/	(8dd/L	8dd\L	.
.	8gg/	8b\	.
.	8bb/	8dd\	.
.	8aa/J	8cc\J	.
2EE/ 2E/	[2gg/	8b\L	.
.	.	8dd#\	.
.	.	8ee\	.
.	.	8b\J	.
=80	=80	=80	=80
2CC#/ 2C#/	2gg/]	8b-\L	.
.	.	8dd#\	.
.	.	8ee\	.
.	.	8b-\J	.
4DD/ 4D/	4ff#/	8a\L	.
.	.	8cc#\J	.
4r	4r	8ddn\L	.
.	.	(8ddd\J)	.
*clefG2	*	*	*
*	*v	*v	*
=81	=81	=81
*	*8va	*
[1A [1d [1cc	8ddd\L	<
.	8dddd\	.
.	8cccc#\	.
.	8ccccn\J	.
.	8aaa\L	.
.	8fff#\	.
.	8eee-\	.
.	8ddd\J	.
*	*X8va	*
=82	=82	=82
*	*^	*
2A/] 2d/] 2cc/]	2r	8ccc#\L	.
.	.	8cccn\	.
.	.	8aa\	.
.	.	8ff#\J	.
2B/ 2d/ 2b/	4gg/)	8ee-\L	.
.	.	8dd\J	.
.	(8eeen/L	4gg\	.
.	(8ddd/J)	.	.
*clefF4	*	*	*
*	*v	*v	*
=83	=83	=83
*	*8va	*
[1AA 1D [1c	8ddd\L	<
.	8dddd\	.
.	8cccc#\	.
.	8ccccn\J	.
.	8aaa\L	.
.	8fff#\	.
.	8eee-\	.
.	8ddd\J	.
*	*X8va	*
=84	=84	=84
*	*^	*
2AA\] 2D\ 2c\]	2r	8ccc#\L	.
.	.	8cccn\	.
.	.	8aa\	.
.	.	(8ff#\J)	.
4BB\ 4D\ 4B\	4gg/	8ee-\L	.
.	.	8dd\J)	.
*clefG2	*	*	*
4B/	8eeen/L	4gg\	.
.	8ddd/J	.	.
=85	=85	=85	=85
2B/	(8ddd/L	8r	.
.	8gg/	8b\L	.
.	8bb/	8dd\	.
.	8aa/J	8cc\J	.
2e/	[2gg/	8b\L	.
.	.	8dd#\	.
.	.	8ee\	.
.	.	8b\J	.
=86	=86	=86	=86
2c#/	2gg/]	8b-\L	.
.	.	8dd#\	.
.	.	8ee\	.
.	.	8b-\J	.
4d/	4ff#/	8a\L	.
.	.	8ddn\	.
4e-/	4gg/)	8g\	.
.	.	8cc\J	.
=87	=87	=87	=87
2en/	(8gg/L	8gg\L	<
.	8ccc/	8ee\	.
.	8eee/	8gg\	.
.	8ddd/J	8ffn\J	.
2a/	[2ccc/	8ee\L	.
.	.	8gg#\	.
.	.	8aa\	.
.	.	8ee\J	.
=88	=88	=88	=88
2f#/	2ccc/]	8ee-\L	.
.	.	8gg#\	.
.	.	8aa\	.
.	.	8ee-\J	.
4g/	4bb/)	8dd\L	.
.	.	8ggn\	.
4a-/	4ccc/	8cc\	.
.	.	8ff#\J	.
=89	=89	=89	=89
*	*8va	*8va	*
2an\	8ccc/L	(8ccc\L	.
.	8fffn/	8aa\	.
.	8aaa/	8ccc\	.
.	8ggg/J	8bb-\J	.
2dd-\	[2fff/	8aa-\L	.
.	.	8ffn\	.
.	.	8aa-\	.
.	.	8gg\J	.
=90	=90	=90	=90
2bn\	2fff/]	8aa-\L	.
.	.	8ccc#\	.
.	.	8ddd\	.
.	.	8aa-\J	.
[2c/ [2cc/	[2eee/	8gg\L	.
.	.	8bb\	.
.	.	8cccn\	.
.	.	8gg\J)	.
=91	=91	=91	=91
4c/] 4cc/]	4eee/]	4ccc\	.
*clefF4	*	*	*
4CC/ 4C/	4r	4ee'\ 4gg'\ 4ccc'\ 4eee'\	.
2r	4r	4bb'\ 4ddd'\	.
.	4r	8ccc'\ 8eee'\L	.
.	.	8ddd'\ 8fffn'\J	.
*	*v	*v	*
=92	=92	=92
4r	4eee'\ 4ggg'\	.
4c'\ 4e'\	4ccc'\ 4eee'\	.
4B'\ 4d'\	2r	.
8c'\ 8e'\L	.	.
8d'\ 8fn'\J	.	.
=93	=93	=93
4e\ 4g\	4r	.
4CC/ 4C/	4ee'\ 4gg'\ 4ccc'\ 4eee'\	.
2r	4bb'\ 4ddd'\	.
.	8ccc'\ 8eee'\L	.
.	8ddd'\ 8fffn'\J	.
=94	=94	=94
4r	4eee'\ 4ggg'\	.
4CC#'/ 4C#'/	4gg'\ 4aa'\ 4eee'\ 4ggg'\	.
4r	4r	.
4AAA'/ 4AA'/	4gg'\ 4ccc#'\ 4eee'\ 4ggg'\	.
=95	=95	=95
4r	4r	.
4DD'/ 4D'/	4gg'\ 4bb'\ 4ddd'\ 4ggg'\	.
4r	4r	.
4EE'/ 4E'/	4gg'\ 4aa'\ 4ccc#'\ 4ggg'\	.
=96	=96	=96
8DD/L	2gg\ 2bb\ 2ddd\ (2ggg\	.
8FF#/	.	.
8GG/	.	.
8BB/J	.	.
8D\L	[2gg\ [2bb\ [2ddd\)	.
8F#\	.	.
8G\	.	.
8B\J	.	.
*clefG2	*	*
=97	=97	=97
8d/L	4gg\] 4bb\] (4ddd\]	.
8f#/	.	.
8g/	4dd/ 4gg/ 4bb/)	.
8b/J	.	.
4r	8dd/L	<
.	8ff#/	.
8g/L	8gg/	.
8b/J	8bb/J	.
=98	=98	=98
8cc#\L	8ccc#\L	.
8dd\	8ddd\	.
8ee\	8eee\	.
8dd\J	8ddd\J	.
8ff#\L	8fff#\L	.
8gg\	8ggg\	.
8aa\	8aaa\	.
8gg\J	8ggg\J	.
=99	=99	=99
8aa#\L	8aaa#\L	.
8bb\	8bbb\	.
8ccc\	8cccc\	.
8bb\J	8bbb\J	.
4ddd\	4dddd\	.
*	*X8va	*
12d/L	4dd\ 4aan\ 4ccc\	p
12e/	.	.
12f#/J	.	.
=100	=100	=100
6G/	1dd 1gg (1bb	.
6b/	.	.
6g/	.	.
6f#/	.	.
6b/	.	.
6g/	.	.
=101	=101	=101
*	*^	*
6e-/	2ccc/	2gg\	.
6cc/	.	.	.
6g/	.	.	.
6c/	2ccc/ 2eee-/)	2gg\	.
6cc/	.	.	.
6g/	.	.	.
=102	=102	=102	=102
6B/	(1gg 1ggg	2ddd\	.
6b/	.	.	.
6g/	.	.	.
6G/	.	2bb\	.
6b/	.	.	.
6g/	.	.	.
*	*v	*v	*
=103	=103	=103
6c/	2gg\ 2ccc\ 2eee-\	.
6cc/	.	.
6g/	.	.
6e-/	2gg\ 2ccc\)	.
6cc/	.	.
6g/	.	.
=104	=104	=104
*	*^	*
6d/	(2bb-/	1gg	.
6b-/	.	.	.
6g/	.	.	.
6d/	2bbn/	.	.
6bn/	.	.	.
6g/	.	.	.
=105	=105	=105	=105
6d/	2ddd/	2ff#\	.
6cc/	.	.	.
6a/	.	.	.
*clefF4	*	*	*
6D\	4.aa/ 4.ccc/	4r	.
6d\	.	.	.
.	.	4dd\	.
6c\	.	.	.
.	8ff#/ 8aa/)	.	.
=106	=106	=106	=106
8GG\L	[1gg (1bb	4dd\	.
8G\	.	.	.
8B\	.	2.r	.
8G\J	.	.	.
8F#\L	.	.	.
8G\	.	.	.
8g\	.	.	.
8G\J	.	.	.
=107	=107	=107	=107
8E\L	2ccc/	1gg_	.
8G\	.	.	.
8g\	.	.	.
8G\J	.	.	.
8C\L	2eee/)	.	.
8G\	.	.	.
8e\	.	.	.
8G\J	.	.	.
*	*v	*v	*
=108	=108	=108
8BB\L	1gg_ (1ggg	.
8G\	.	.
8d\	.	.
8G\J	.	.
8GG\L	.	.
8G\	.	.
8B\	.	.
8G\J	.	.
=109	=109	=109
*	*^	*
8C\L	2eee/	1gg_	.
8G\	.	.	.
8e\	.	.	.
8G\J	.	.	.
8E\L	2ccc/)	.	.
8G\	.	.	.
8g\	.	.	.
8G\J	.	.	.
=110	=110	=110	=110
8D\L	(4bb-/	1gg]	.
8E\	.	.	.
8F#\	2bb-/	.	.
8G\J	.	.	.
8A\L	.	.	.
8B\	.	.	.
8A\	4ddd/)	.	.
8G\J	.	.	.
=111	=111	=111	=111
8F#\L	1ddd	4r	.
8G\	.	.	.
8F#\	.	4dd\	.
8E\J	.	.	.
8D/L	.	2r	.
8C/	.	.	.
8BB/	.	.	.
8AA/J	.	.	.
*	*v	*v	*
=112	=112	=112
*	*8va	*
8GGG/L	4ddd\ 4fffn\ 4bbb\ 4dddd\	ff
8GG/	.	.
8GGG/	2ddd\ 2fff\ 2bbb\ 2dddd\	.
8GG/J	.	.
8GGG/L	.	.
8GG/	.	.
8GGG/	4ccc\ 4ddd\ 4fff\ 4cccc\	.
8GG/J	.	.
=113	=113	=113
8GGG/L	4bb'\ 4ddd'\ 4fffn'\ 4bbb'\	.
8GG/	.	.
8GGG/	4ccc'\ 4ddd'\ 4fff'\ 4cccc'\	.
8GG/J	.	.
8GGG/L	4ddd'\ 4fff'\ 4dddd'\	.
8GG/	.	.
8GGG#/	4bb'\ 4ddd'\ 4eee'\ 4bbb'\	p
8GG#/J	.	.
=114	=114	=114
8AAA/L	4ccc'\ 4eee'\ 4cccc'\	.
8AA/	.	.
8GGG#/	4bb'\ 4ddd'\ 4eee'\ 4bbb'\	.
8GG#/J	.	.
8AAA/L	4ccc'\ 4eee'\ 4cccc'\	.
8AA/	.	.
8CC/	4ccc'\ 4eee'\ 4ggg'\ 4cccc'\	.
8C/J	.	.
=115	=115	=115
8CC#/L	4aa'\ 4eee'\ 4ggg'\	.
8C#/	.	.
8EE/	4aa'\ 4ccc#'\ 4ggg'\	.
8E/J	.	.
8DD/L	4aa'\ 4cccn'\ 4fff#'\	.
8D/	.	.
8DD/	4aa'\ 4ccc'\ 4aaa'\	.
8D/J	.	.
=116	=116	=116
8DD/L	4gg'\ 4bb'\ 4ggg'\	<
8D/	.	.
8GG/	4dd'\ 4bb'\ 4ddd'\	.
8G/J	.	.
8DD/L	4ff#'\ 4ccc'\ 4fff#'\	.
8D/J	.	.
8D\L	4aa'\ 4ccc'\ 4fff#'\ 4aaa'\	.
8d\J	.	.
=117	=117	=117
8DD/L	4gg'\ 4bb'\ 4ggg'\	.
8D/	.	.
8GG/	4dd'\ 4bb'\ 4ddd'\	.
8G/J	.	.
8DD/L	4ff#'\ 4ccc'\ 4fff#'\	.
8D/J	.	.
8D\L	4aa'\ 4ccc'\ 4fff#'\ 4aaa'\	.
8d\J	.	.
=118	=118	=118
8GG/L	8gg/L	.
8G/	8ggg/	.
8DD/	8dd/	.
8D/J	8ddd/J	.
8FF#\L	8ff#\L	.
8F#\	8fff#\	.
8AA\	8aa\	.
8A\J	8aaa\J	.
=119	=119	=119
8GG/L	8gg\L	.
8G/	8ggg\	.
8DD/	8dd\	.
8D/J	8ddd\J	.
8FFF#/L	8ff#\L	.
8FF#/	8fff#\	.
8AAA/	8aa\	.
8AA/J	8aaa\J	.
*	*X8va	*
=120	=120	=120
*	*8va	*
4GGG/ 4GG/	4gg\ 4ggg\	ff
4r	4r	.
4AAA/ 4AA/	4aa\ 4aaa\	.
4r	4r	.
=121	=121	=121
[2BBB-/ [2BB-/	[2bb-\ [2bbb-\	.
4.BBB-/] 4.BB-/]	4.bb-\] 4.bbb-\]	p
*	*X8va	*
8BB-/	8r	.
=122	=122	=122
4.B-\	1r	.
8B-\	.	.
4B-\	.	.
4r	.	.
=123	=123	=123
2r	2r	.
4r	4r	.
8r	8r	.
8D\	8B-/	.
=124	=124	=124
4.d\	4.b-\	.
8d\	8b-\	.
4d\	4b-\	.
4r	4r	.
=125	=125	=125
2r	2r	.
4r	4r	.
8r	8r	.
=126:|!	=126:|!	=126:|!
*>B	*>B	*>B
*	*8va	*
4GGG/ 4GG/	4gg\ 4ggg\	.
4r	4r	.
4AAA/ 4AA/	4aa\ 4aaa\	.
4r	4r	.
=127	=127	=127
1BBB; 1BB;	1bb; 1bbb;	ff
=128	=128	=128
4BBB/ 4BB/	4bb\ 4bbb\	.
4r	4r	.
4CC/ 4C/	4ccc\ 4cccc\	.
4r	4r	.
=129	=129	=129
1DD; 1D;	1ddd; 1dddd;	ff
*	*X8va	*
*clefG2	*	*
=130	=130	=130
*	*^	*
8b/L	4ddd/	4dd\ 4gg\	pp
8g/	.	.	.
8b/	2ddd/	2dd\ 2gg\	.
8g/J	.	.	.
8b/L	.	.	.
8g/	.	.	.
8cc/	4ccc'/	4ee-\ 4gg\	.
8g/J	.	.	.
=131	=131	=131	=131
8dd/L	4bb'/	4ffn'\ 4gg'\	.
8g/	.	.	.
8cc/	4ccc'/	4ee-\ 4gg\	.
8g/J	.	.	.
8b/L	4ddd'/	4dd\ 4gg\	.
8g/	.	.	.
8dd/	4bb'/	4ff\ 4gg\	.
8g/J	.	.	.
=132	=132	=132	=132
8cc/L	4eee-/	4ee-\ 4gg\	.
8g/	.	.	.
8cc/	2eee-/	2ee-\ 2gg\	.
8g/J	.	.	.
8cc/L	.	.	.
8g/	.	.	.
8b/	4ddd'/	4dd\ 4ffn\ 4gg\	.
8g/J	.	.	.
=133	=133	=133	=133
8cc/L	4ccc'/	4ee-\ 4gg\	.
8g/	.	.	.
8b/	4ddd'/	4dd\ 4ffn\ 4gg\	.
8g/J	.	.	.
8cc/L	4eee-'/	4ee-\ 4gg\	.
8g/	.	.	.
8cc/	4ccc'/	4ee-\ 4gg\	.
8c/J	.	.	.
=134	=134	=134	=134
8b-/L	4fffn/	4ffn\ 4aa-\	.
8B-/	.	.	.
8d/ 8b-/	2fff/	2ff\ 2aa-\	<
8B-/J	.	.	.
8d/ 8b-/L	.	.	.
8B-/	.	.	.
8e-/ 8b-/	4eee-'/	4ee-\ 4gg\	.
8B-/J	.	.	.
=135	=135	=135	=135
8fn/ 8b-/L	4ddd'/	4dd\ 4ffn\	.
8B-/	.	.	.
8e-/ 8b-/	4eee-'/	4ee-\ 4gg\	.
8B-/J	.	.	.
8d/ 8b-/L	4fff#'/	4ff\ 4aa-\	.
8B-/J	.	.	.
*clefF4	*	*	*
8AA-/L	4bb-'/ 4eee-'/	4dd\ 4ff\	.
8A-/J	.	.	.
*	*v	*v	*
=136	=136	=136
*k[b-e-a-]	*k[b-e-a-]	*k[b-e-a-]
*	*8va	*
8GG\L	4gg\ 4eee-\ 4ggg\	.
8G\	.	.
8G\	4r	.
8g\J	.	.
8FF\L	4aa-\ 4fff\ 4aaa-\	.
8F\	.	.
8F\	4r	.
8f\J	.	.
=137	=137	=137
8EE-/L	1bb-; 1ggg; 1bbb-;	.
*	*X8va	*
8E-/J	.	.
2.E-;\ 2.e-;\	.	.
=138	=138	=138
4r	4e-/ 4g/	p
(8G\L	4r	.
8B-\J)	.	.
4r	4f/ 4a-/	.
(8F\L	4r	.
8A-\J)	.	.
=139	=139	=139
4r	[2g/ [2b-/	.
4E-\ [4G\	.	.
4.E-;\ 4.G;\]	4.g;/] 4.b-;/]	ff
(8E-\	8r	.
=140	=140	=140
4.e-\)	1r	.
8e-\	.	.
4e-\	.	.
4r	.	.
=141	=141	=141
2r	2r	.
4r	4r	.
8r	8r	.
*	*clefF4	*clefF4
8G\	(8E-\	ff
=142	=142	=142
4.g\	4.e-\)	.
8g\	8e-\	.
4g\	4e-\	.
4r	4r	.
=143	=143	=143
1r	2r	.
.	4r	.
.	8r	.
.	8BB-/	p
=144	=144	=144
2r	4.E-\	.
.	8E-\	.
4r	4E-\	.
8r	8F\L	.
8EE-/	8E-\J	p
=145	=145	=145
4.AA-/	4E-\	.
.	4C/	p
8AA-/	.	.
4AA-/	(2C/	.
8BB-/L	.	.
8AA-/J	.	.
=146	=146	=146
4AA-/	4A-'\)	.
4FF/	8A-\L	.
.	8G\J	.
(2FF/	4F\	.
.	8F\L	.
.	8E-\J	.
=147	=147	=147
4BB-'/)	4D\	.
8BB-/L	4r	.
8AA-/J	.	.
4GG/	2D\	.
8GG/L	.	.
8FF/J	.	.
=148	=148	=148
4EEn/	4B-'\	.
4r	8B-\L	.
.	8A-\J	.
(2EE/	4G\	.
.	8G\L	.
.	8F\J	.
=149	=149	=149
4C'/)	4En\	.
8C/L	4r	.
8BB-/J	.	.
4AA-/	2E\	.
8AA-/L	.	.
8GG/J	.	.
=150	=150	=150
4FF/	4c'\	.
8r	8c\L	<
8C/	8B-\J	.
4F\	4A-\	.
8F\L	8A-\L	.
8E-\J	8G\J	.
=151	=151	=151
4D/	4F\	.
8D/L	8F\L	.
8C/J	8G\J	.
4BB-/	4A-\	.
8C/L	8A-\L	.
8D/J	8B-\J	.
=152	=152	=152
*^	*	*
4E-\	2.r	4G\	.
(4GG/	.	8G\L	.
.	.	8F\J	.
4AAn/)	.	4E-\	.
8F/L	4C\	8r	.
*	*	*clefG2	*clefG2
8E-/J	.	8f/	.
=153	=153	=153	=153
*	*	*^	*
4D/	4BB-\	4b-/	2.r	<
8BB-/L	2.r	4b-/	.	.
8C/J	.	.	.	.
4D/	.	4b-/	.	.
8E-\L	.	8cc/L	8r	.
8F\J	.	8b-/J	8B-\	.
*v	*v	*	*	*
=154	=154	=154	=154
4G\	4b-/	4.e-\	.
4r	4g/	.	.
.	.	8e-\	.
2r	(2g/	4e-\	.
.	.	8f\L	.
.	.	8e-\J	.
=155	=155	=155	=155
*^	*	*	*
4r	4C\	4ee-'/)	4e-\	.
4c/	8C\L	8ee-/L	2.r	.
.	8D\J	8dd/J	.	.
2c/	4En\	4cc/	.	.
.	8F\L	8cc/L	.	.
.	8G\J	8b-/J	.	.
*v	*v	*	*	*
=156	=156	=156	=156
4F\	4an/	4f\	.
4r	4r	8f\L	.
.	.	8e-\J	.
4F\	(2a/	4d\	.
8F\L	.	8d\L	.
8E-\J	.	8c\J	.
*	*v	*v	*
=157	=157	=157
*^	*	*
4Bn/	4D\	4ff'/)	.
4r	8D\L	8ff/L	.
.	8E-\J	8ee-/J	.
2B/	4F\	4dd/	.
.	8G\L	8dd/L	.
.	8A-\J	8cc/J	.
*v	*v	*	*
=158	=158	=158
*	*^	*
4G\	4bn/	4g\	.
4r	4r	8g\L	.
.	.	8f\J	.
4G\	(2b/	4e-\	.
8G\L	.	8e-\L	.
8F\J	.	8d\J	.
=159	=159	=159	=159
*^	*	*	*
4c/	4E-\	4gg'/)	2.r	.
2c/	8E-\L	8gg/L	.	.
.	8F\J	8ff/J	.	.
.	4G\	4ee-/	.	.
4r	8An\L	8ee-/L	8g\L	.
.	8Bn\J	8dd/J	8f\J	.
*v	*v	*	*	*
=160	=160	=160	=160
4c\	4cc/	4e-\	.
8D\L	8cc/L	8f\L	.
8En\J	8b-/J	8g\J	.
4F\	4a-/	4c\	.
8FF/L	8a-/L	8c\L	.
8GG/J	8g/J	8B-\J	.
=161	=161	=161	=161
4AA-/	4f/	4c\	.
4BB-/	8f/L	4d\	.
.	8g/J	.	.
4C-/	4a-/	4e-\	f
8BB-/L	4b-/	8d\L	.
8BBB-/J	.	8d\ 8f\J	.
=162	=162	=162	=162
4.EE-/	4e-/ 4b-/	4.g\	f
.	4r	.	.
8EE-/	.	8g\	.
4EE-/	4r	4g\	.
8FF/L	8r	8a-\L	.
8EE-/J	8b-/	8g\J	.
=163	=163	=163	=163
*^	*	*	*
4.C/	4EE-\	4.ee-/	4g\	.
.	4CC\	.	4e-\	.
8C/	.	8ee-/	.	.
4C/	(2CC\	4ee-/	[2e-\	.
8D/L	.	8ff/L	.	.
8C/J	.	8ee-/J	.	.
=164	=164	=164	=164	=164
4C/	4AA-\)	4ee-/	4e-\]	.
4AA-/	8AA-\L	4cc/	8cc\L	.
.	8GG\J	.	8b-\J	.
(2AA-/	4FF\	2cc/	4a-\	.
.	8FF\L	.	8a-\L	.
.	8EE-\J	.	8g\J	.
=165	=165	=165	=165	=165
4F'/)	4DD\	4aa-/	4f\	.
8F/L	4r	8aa-/L	4r	.
8E-/J	.	8gg/J	.	.
4D'/	(2DD\	4ff'/	2f\	.
8D/L	.	8ff/L	.	.
8C/J	.	8ee-/J	.	.
=166	=166	=166	=166	=166
4BB-'/	4BB-'\)	4dd'/	4dd'\	.
4r	8BB-\L	4r	8dd\L	.
.	8AA-\J	.	8cc\J	.
(2BB-/	4GG\	2dd/	4b-\	.
.	8GG\L	.	8b-\L	.
.	8FF\J	.	8a-\J	.
=167	=167	=167	=167	=167
4G'/)	4EEn\	4bb-'/	4g\	.
8G/L	4r	8bb-/L	4r	.
8F/J	.	8aa-/J	.	.
4En/	(2EE\	4gg/	[2g\	.
8E/L	.	8gg/L	.	.
8D/J	.	8ff/J	.	.
=168	=168	=168	=168	=168
4C/	4C\)	4een/	4g\]	.
4r	8C\L	4en/	8G\L	.
.	8BB-\J	.	8d-\J	.
4C/	4AA-\	4f/	4c\	.
4En/	4GG\	4g/	8c\L	.
.	.	.	8B-\J	.
=169	=169	=169	=169	=169
4F/	2.FF\	2.a-/	4A-\	.
(4C/	.	.	8f\L	.
.	.	.	8e-\J	.
4F/	.	.	4dn\	.
4E-/)	4FF#\	4an/	8d\L	.
.	.	.	8c\J	.
=170	=170	=170	=170	=170
4D/	2.GG\	4b-/	4B-\	<
(4D/	.	8gg/L	4r	.
.	.	8ff/J	.	.
4G/	.	4ee-/	2r	.
4F/)	4GG\	8ee-/L	.	.
.	.	8dd/J	.	.
=171	=171	=171	=171	=171
4E-/	2.AA-\	2.cc/	4r	.
8A-/L	.	.	4c\	.
8G/J	.	.	.	.
4F/	.	.	[2f\	.
8F/L	4AAn\	4cc#/	.	.
8E-/J	.	.	.	.
=172	=172	=172	=172	=172
4D/	4BB-\	4dd/	4f\]	.
8B-/L	4BBn\	8ee-/L	8g\L	.
8A-/J	.	8dd/J	8f\J	.
4G/	4C\	4cc/	4e-\	.
4F/	4D\	8bn/L	4d\	.
.	.	8g/J	.	.
*v	*v	*	*	*
*	*v	*v	*
=173	=173	=173
4C\ 4E-\	4.cc\ 4.ee-\	f
4r	.	.
.	8cc\ 8ee-\	.
4r	4cc\ 4ee-\	.
8r	8dd\ 8ff\L	.
8C\ 8E-\	8cc\ 8ee-\J	.
=174	=174	=174
4.F\ 4.A-\	4cc\ 4ee-\	.
.	4a-\ 4cc\	.
8F\ 8A-\	.	.
4F\ 4A-\	2a-\ (2cc\	.
8G\ 8B-\L	.	.
8F\ 8A-\J	.	.
=175	=175	=175
4F\ 4A-\	4ff'\ 4aa-'\)	.
4D-\ 4F\	8ff'\ 8aa-'\L	.
.	8ee-\ 8gg\J	.
2D-\ (2F\	4dd-\ 4ff\	.
.	8dd-\ 8ff\L	.
.	8cc\ 8ee-\J	.
=176	=176	=176
4B-'\ 4d-'\)	4b-\ 4dd-\	.
8B-\ 8d-\L	4r	.
8A-\ 8c\J	.	.
4G\ 4B-\	2b-\ 2dd-\	.
8G\ 8B-\L	.	.
8F\ 8A-\J	.	.
=177	=177	=177
4En\ 4G\	4gg\ 4bb-\	.
4r	8gg\ 8bb-\L	.
.	8ff\ 8aa-\J	.
2E\ (2G\	4een\ 4gg\	.
.	8ee\ 8gg\L	.
.	8ddn\ 8ff\J	.
=178	=178	=178
4c'\ 4en'\)	4cc\ 4ee-\	.
8c\ 8e-\L	4r	.
8B-\ 8d-\J	.	.
4A-\ 4c\	2cc\ 2ff\	.
8A-\ 8c\L	.	.
8G\ 8B-\J	.	.
=179	=179	=179
4F'\ 4A-'\	4aa-'\ 4ccc'\	.
8Dn\ 8F\L	8aa-\ (8ccc\L	.
8E-\ 8G\J	8gg\ 8bb-\J	.
4F'\ 4A-'\	4ff'\ 4aa-'\)	.
8C\ 8E-\L	8gg\ (8bb-\L	.
8D\ 8F\J	8ff\ 8aa-\J	.
=180	=180	=180
4E-'\ 4G'\	4ee-'\ 4gg'\)	.
8BBn\ 8D\L	8aa-\ (8fff\L	.
8C\ 8E-\J	8gg\ 8eee-\J	.
4D'\ 4F'\	4ff'\ 4ddd'\)	.
8AAn/ 8C/L	8gg\ (8eee-\L	.
8BB/ 8D/J	8ff\ 8ddd\J	.
=181	=181	=181
4C'/ 4E-'/	4ee-'\ 4ccc'\)	.
*clefG2	*	*
8d-/ 8f/L	8gg\ (8bb-\L	.
8c/ 8e-/J	8aa-\ 8ccc\J	.
4B-'/ 4d-'/	4bb-'\ 4ddd-'\)	.
8c/ 8e-/L	8ff\ (8aa-\L	.
8B-/ 8d-/J	8gg\ 8bb-\J	.
*clefF4	*	*
=182	=182	=182
*	*^	*
4A-'\ (4c'\	4aa-'\ 4ccc'\)	4r	.
4A-\ 4c\	(8ee-/L	4cc\	.
.	8ff/J	.	.
4G'\ 4dn'\)	4gg'/)	4bn\	.
4r	8r	4r	.
.	8b/ 8dd/	.	ff
*	*v	*v	*
=183	=183	=183
4r	2gg\ [2bbn\	.
*clefG2	*	*
8r	.	.
8g/ 8bn/	.	.
4.g/ 4.b/	4.gg\ 4.bb\]	.
*clefF4	*	*
8G\ 8Bn\	8bn\ 8dd\	.
=184	=184	=184
*	*^	*
4.G\ 4.Bn\	2.r	2.gg\ 2.bbn\	.
8GG/ 8BBn/	.	.	.
4GG/ 4BB/	.	.	.
*	*8va	*	*
4r	8eee-/L	4gg\ 4bbn\	p
.	8ddd/J	.	.
=185	=185	=185	=185
4r	8ggg/L	4bbn\ 4ddd\	.
.	8fff/J	.	.
*	*X8va	*	*
*clefG2	*	*	*
(8eee-\L	4r	4r	.
8ddd\J)	.	.	.
4r	8gg/L	4b\ 4dd\	.
.	8ff/J	.	.
(8ee-\L	4r	4r	.
8dd\J)	.	.	.
=186	=186	=186	=186
4r	8g/L	4Bn\ 4d\	.
.	8f/J	.	.
(8e-/L	4r	4r	.
8d/J)	.	.	.
4r	8gg/L	4bn\ 4dd\	.
.	8ff/J	.	.
(8ee-\L	4r	4r	.
8dd\J)	.	.	.
*	*v	*v	*
=187	=187	=187
4.c/ 4.cc/	[2gg\ [2ccc\ [2eee-\	ff
8cc\ 8ee-\	.	.
4.cc\ 4.ee-\	4.gg\] 4.ccc\] 4.eee-\]	.
8c/ 8e-/	[8ee-\ [8gg\	.
=188	=188	=188
*	*^	*
4.c/ 4.e-/	2.r	2ee-\_ 2gg\_ [2ccc\ [2eee-\	.
*clefF4	*	*	*
8C\ 8E-\	.	.	.
4C\ 4E-\	.	4ee-\] 4gg\] 4ccc\] 4eee-\]	.
*	*8va	*8va	*
4r	8fff/L	4gg\ 4ccc\	p
.	8eee-/J	.	.
*	*X8va	*X8va	*
=189	=189	=189	=189
4r	8aa-/L	4cc\ 4ee-\	.
.	8gg/J	.	.
*clefG2	*	*	*
(8fff\L	4r	4r	.
8eee-\J)	.	.	.
4r	(8aa-/L	4cc\ 4ee-\	.
.	8gg/J)	.	.
(8ff\L	4r	4r	.
8ee-\J)	.	.	.
=190	=190	=190	=190
4r	8a-/L	4c\ 4e-\	.
.	8g/J	.	.
(8f/L	4r	4r	.
8e-/J)	.	.	.
4r	8aa-/L	4cc\ 4ee-\	.
.	8gg/J	.	.
(8ff\L	4r	4r	.
8ee-\J)	.	.	.
*	*v	*v	*
=191	=191	=191
4.B-/ 4.b-/	[2ff\ [2ddd\ [2fff\	ff
8b-\ 8dd\	.	.
4.b-\ 4.dd\	4.ff\] 4.ddd\] 4.fff\]	.
8B-/ 8d/	8dd\ 8ff\	.
=192	=192	=192
*	*^	*
4.B-/ 4.d/	[2ddd/ [2fff/	4r	.
.	.	8r	.
*clefF4	*	*	*
8BB-/ 8D/	.	8ff\	.
4BB-/ 4D/	4ddd/] 4fff/]	4bb-\	.
4r	(8gg/L	4b-\ 4dd\	p
.	8ff/J)	.	.
*clefG2	*	*	*
=193	=193	=193	=193
4r	8bb-/L	4dd\ 4ff\	.
.	8aa-/J	.	.
(8ggg\L	4r	4r	.
8fff\J)	.	.	.
4r	(8bb-/L	4dd\ 4ff\	<
.	8aa-/J)	.	.
(8gg\L	4r	4r	.
8ff\J)	.	.	.
=194	=194	=194	=194
4r	8b-/L	4d\ 4f\	.
.	8a-/J	.	.
(8g/L	4r	4r	.
8f/J)	.	.	.
4r	8bb-/L	4dd\ 4ff\	.
.	8aa-/J	.	.
(8gg\L	4r	4r	.
8ff\J)	.	.	.
*	*v	*v	*
=195	=195	=195
4.e-\ 4.ee-\	[2eee-\ [2ggg\	ff
8ee-\ 8gg\	.	.
4.ee-\ 4.gg\	4.eee-\] 4.ggg\]	.
8e-/ 8g/	8gg\ 8bb-\	.
=196	=196	=196
*	*^	*
4.e-/ 4.g/	[2eee-/ [2ggg/	4r	.
.	.	8r	.
*clefF4	*	*	*
8E-\ 8e-\	.	8gg\	.
4E-\ 4e-\	4eee-/] 4ggg/]	4ccc\	.
4r	4r	8r	.
.	.	8ff#\ 8aan\	.
*	*v	*v	*
=197	=197	=197
*	*8va	*
4r	[2fff#\ [2aaan\	ff
*clefG2	*	*
8r	.	.
8d/ 8dd/	.	.
4.d/ 4.dd/	4.fff#\] 4.aaa\]	.
*clefF4	*	*
8D\ 8d\	8ff#/ 8aan/	.
=198	=198	=198
*	*^	*
4.D\ 4.d\	[2fff#/ [2aaan/	4r	.
.	.	8r	.
8DD/ 8D/	.	8aan\	.
4DD/ 4D/	4.fff#/] 4.aaa/]	4.ddd\	.
4r	.	.	.
.	8r	8gg#/ 8bbn/	.
*	*v	*v	*
=199	=199	=199
*k[]	*k[]	*k[]
4r	[2bb\ [2ddd\ [2fffn\ [2ggg#\ [2bbb\	.
8r	.	.
*clefG2	*	*
8d/ 8f/ 8g#/ 8b/ 8dd/	.	.
4.d/ 4.f/ 4.g#/ 4.b/ 4.dd/	4.bb\] 4.ddd\] 4.fff\] 4.ggg#\] 4.bbb\]	.
*clefF4	*	*
8D\ 8F\ 8G#\ 8B\ 8d\	8gg#/ 8bb/	.
=200	=200	=200
4.D\ 4.F\ 4.G#\ 4.B\ 4.d\	[2bb\ [2ddd\ [2fff\ [2ggg#\ [2bbb\	.
8DD/ 8FF/ 8GG#/ 8BB/ 8D/	.	.
4DD/ 4FF/ 4GG#/ 4BB/ 4D/	4.bb\] 4.ddd\] 4.fff\] 4.ggg#\] 4.bbb\]	.
4r	.	.
.	8ee/ 8gg/ 8bb-/ 8ccc#/	.
*clefG2	*	*
=201	=201	=201
4r	[2eee\ [2ggg\ [2bbb-\ [2cccc#\	.
8r	.	.
8d/ 8g/ 8b-/ 8een/	.	.
4.d/ 4.g/ 4.b-/ 4.ee/	4.eee\] 4.ggg\] 4.bbb-\] 4.cccc#\]	.
*clefF4	*	*
8D\ 8G\ 8B-\ 8e\	8ee/ 8gg/ 8bb-/ 8ccc#/	.
=202	=202	=202
4.D\ 4.G\ 4.B-\ 4.e\	[2eee\ [2ggg\ [2bbb-\ [2cccc#\	.
8DD/ 8GG/ 8BB-/ 8E/	.	.
4DD/ 4GG/ 4BB-/ 4E/	4.eee\] 4.ggg\] 4.bbb-\] 4.cccc#\]	.
4r	.	.
.	8ff#/ 8aa/ 8ddd/	.
*clefG2	*	*
=203	=203	=203
4r	4.ddd\ 4.fff#\ 4.aaa\ 4.dddd\	.
8r	.	.
8d/ 8f#/ 8a/ 8dd/	8ddd\	.
4.d/ 4.f#/ 4.a/ 4.dd/	4.dddd\	.
*	*X8va	*
*clefF4	*	*
8D\ 8d\	(8dd\	>
=204	=204	=204
*k[f#c#]	*k[f#c#]	*k[f#c#]
4.D\ 4.d\	4.ddd\)	.
8DD/ 8D/	(8dd\	.
4.DD/ 4.D/	4.ddd\)	.
8D/	(8dd\	.
=205	=205	=205
4.DD/	4.ddd\)	.
8d\	(8dd\	.
4.D\	4.ddd\)	.
8d\	(8dd\	.
=206	=206	=206
4.D\	4.ddd\)	.
(8d\	(8dd\	.
4.D\)	4.ddd\)	.
*clefG2	*	*
8b\	8dd#\	.
=207	=207	=207
*k[f#c#]	*k[f#c#]	*k[f#c#]
*	*^	*
6B/	(1ddd#	2ddd#\	p
6b/	.	.	.
6a#/	.	.	.
6b/	.	2dd#\	.
6f#/	.	.	.
6b/	.	.	.
=208	=208	=208	=208
6g/	2eee/	1ee	.
6b/	.	.	.
6g/	.	.	.
6b/	2gg/)	.	.
6e/	.	.	.
6b/	.	.	.
=209	=209	=209	=209
6d#/	(1bb	2ff#\	.
6b/	.	.	.
6d#/	.	.	.
6b/	.	2dd#\	.
6B/	.	.	.
6b/	.	.	.
=210	=210	=210	=210
6B/	2gg/	2b\ 2ee\	.
6e/	.	.	.
6B/	.	.	.
6g/	2ee/)	2b\	.
6e/	.	.	.
6g/	.	.	.
*	*v	*v	*
=211	=211	=211
6f#/	(2ddn\	.
6b/	.	.
6f#/	.	.
6b/	2dd#\	.
6f#/	.	.
6b/	.	.
=212	=212	=212
6f#/	2ff#\	.
6a#/	.	.
6f#/	.	.
6a#/	4ee\	.
6f#/	.	.
.	4cc#\	.
6a#/	.	.
=213	=213	=213
6f#/	4dd#\)	.
6b/	.	.
.	(4dn/	.
6f#/	.	.
6b/	2d#/)	.
6f#/	.	.
6b/	.	.
=214	=214	=214
6a#/	(2f#/	.
6cc#/	.	.
6a#/	.	.
6cc#/	4e/	.
6a#/	.	.
.	4c#/)	.
6cc#/	.	.
=215	=215	=215
6f#/	8b\ 8dd#\L	.
.	8ee\	.
6b/	.	.
.	8dd#\	.
6f#/	.	.
.	8cc##\J	.
6b/	8dd#\L	.
.	8ee\	.
6f#/	.	.
.	8ff#\	.
6b/	.	.
.	8ee#\J	.
=216	=216	=216
6f#/	8gg#\L	.
.	8ff#\	.
6a#/	.	.
.	8ee#\	.
6f#/	.	.
.	8ff#\J	.
6a#/	8een\L	.
.	8dd#\	.
6f#/	.	.
.	8ee\	.
6a#/	.	.
.	8cc#\J	.
=217	=217	=217
*	*^	*
6f#/	4dd#/	8d#\L	.
.	.	8e\	.
6b/	.	.	.
.	4r	8d#\	.
6f#/	.	.	.
.	.	8c##\J	.
6b/	2r	8d#\L	.
.	.	8e\	.
6f#/	.	.	.
.	.	8f#\	.
6b/	.	.	.
.	.	8e#\J	.
*	*v	*v	*
=218	=218	=218
6a#/	8g#/L	.
.	8f#/	.
6cc#/	.	.
.	8e#/	.
6a#/	.	.
.	8f#/J	.
4cc#/	8en/L	.
.	8d#/	.
*clefF4	*	*
8r	8e/	.
8FFF#\	8f#/J	f
=219	=219	=219
*^	*	*
4F#/	4.AAA#\	4c#/ 4e/	f
4r	.	4r	.
.	8AAA#\	.	.
4r	4AAA#\	2r	.
8r	8BBB\L	.	.
8F#/	8AAA#\J	.	.
*v	*v	*	*
=220	=220	=220
*k[f#c#g#d#a#]	*k[f#c#g#d#a#]	*k[f#c#g#d#a#]
*^	*	*
4.A#/	4AAA#\	2r	.
.	4FFF#\	.	.
8A#/	.	.	.
4A#/	2r	4r	.
8B/L	.	8r	.
8A#/J	.	8f#/	p
*v	*v	*	*
=221	=221	=221
*	*^	*
4A#/	4.cc#/	4r	.
4F#/	.	4r	.
.	8cc#/	.	.
4r	4cc#/	4r	.
8r	8dd#/L	8r	.
8r	8cc#/J	8c#\	.
=222	=222	=222	=222
2r	4cc#/	4.e\	.
.	4a#/	.	.
.	.	8e\	.
4r	2r	4e\	.
8r	.	8f#\L	.
8FFF#/	.	8e\J	f
=223	=223	=223	=223
*^	*	*	*
4r	4.EE\	2r	8e\L	.
.	.	.	8c#\J	.
8r	.	.	4r	.
4.E/	8EE\	.	.	.
.	4EE\	4r	4r	.
8FF#/	4r	8r	4r	.
8E/	.	8f#/	.	p
*v	*v	*	*	*
=224	=224	=224	=224
4E\	4.ee/	4r	.
4r	.	8r	.
.	8ee/	8e\	.
4r	4ee/	4.cc#\	.
8r	4r	.	.
8CC#/	.	8cc#\	.
=225	=225	=225	=225
*^	*	*	*
4r	4.AA#\	2r	4cc#\	.
8r	.	.	4r	.
8C#/	8AA#\	.	.	.
4.A#/	4AA#\	4r	4r	.
.	4r	8r	4r	.
8A#/	.	8cc#/	.	.
*v	*v	*	*	*
=226	=226	=226	=226
4A#/	4.aa#/	4r	.
4r	.	8r	.
.	8aa#/	8c#\	.
4r	4aa#/	4.a#\	.
8r	4r	.	.
(8EE\	.	8a#\	.
*	*v	*v	*
=227	=227	=227
[2C#\)	4a#\	<
.	8r	.
.	8E/	.
4.C#\]	[2c#/	.
(8GGn\	.	.
=228	=228	=228
[2E\)	4.c#/]	.
.	8Gn/	.
4.E\]	[2e/	.
(8GGn\	.	.
=229	=229	=229
4.E\)	8e/L]	.
.	8Gn/J	.
.	4.e/	.
*clefG2	*	*
(8gn/	.	.
4.ee/)	.	.
.	8ggn\	.
.	[4eee\	.
*clefF4	*	*
(8GG#/	.	.
=230	=230	=230
4.E/)	8eee\]	.
.	8G#/	.
.	4.e/	.
*clefG2	*	*
(8g#/	.	.
4.ee/)	.	.
.	8gg#\	.
.	[4eee\	.
*clefF4	*	*
(8AA#\	.	.
=231	=231	=231
*k[b-e-]	*k[b-e-]	*k[b-e-]
4.E-\)	8eee\]	.
.	8A#/	.
.	4.e-/	.
*clefG2	*	*
(8a#/	.	.
4.ee-/)	.	.
.	8aa#\	.
.	[4eee-\	.
*clefF4	*	*
8AA#\	.	.
=232	=232	=232
4.Fn\	8eee-\]	.
.	8A#/	.
.	4.fn/	ff
*clefG2	*	*
8a#/	.	.
4.ffn/	.	.
.	(8aa#\	.
.	4fffn\)	.
*clefF4	*	*
8BBB-/ 8BB-/	.	.
=233	=233	=233
*k[b-e-]	*k[b-e-]	*k[b-e-]
4BB-\ 4B-\	4.dd\ 4.ff\ 4.bb-\ 4.ddd\	ff
(8c\L	.	.
8B-\J)	8dd\ 8ff\ 8bb-\ 8ddd\	.
4F\	4dd'\ 4ff'\ 4bb-'\ 4ddd'\	.
8G\L	8dd'\ 8ff'\ 8bb-'\ 8eee-'\L	.
8F\J	8dd'\ 8ff'\ 8bb-'\ 8ddd'\J	.
=234	=234	=234
4D\	4dd'\ 4ff'\ 4bb-'\ 4ddd'\	.
8E-\L	4b-'\ 4dd'\ 4ff'\ 4bb-'\	.
8D\J	.	.
4BB-/	4r	.
8C/L	8r	.
8BB-/J	8dd\ 8ff\	.
=235	=235	=235
!(DDq/LL	!	!
!Dq/JJ	!	!
4d\)	4.ff\ 4.bb-\ 4.fff\	.
8e-\L	.	.
8d\J	8ff\ 8bb-\ 8ddd\ 8fff\	.
4B-\	4ff'\ 4bb-'\ 4ddd'\ 4fff'\	.
8d\L	8ff'\ 8bb-'\ 8ddd'\ 8ggg'\L	.
8B-\J	8ff'\ 8bb-'\ 8ddd'\ 8fff'\J	.
=236	=236	=236
4F\	4ff'\ 4bb-'\ 4ddd'\ 4fff'\	.
8B-\L	4dd'\ 4ff'\ 4bb-'\ 4ddd'\	.
8F\J	.	.
8D/L	4r	.
8BB-/	.	.
8E-/	8gg\ (8bb-\L	p
8C/J	8aa\ 8ccc\J)	.
=237	=237	=237
*	*^	*
4BB-/	2ff\ 2bb-\ (2ddd\	2.r	.
8C/L	.	.	.
8BB-/J	.	.	.
4FF/ 4F/	4ff\ 4aa\ 4ccc\)	.	.
8E-/L	4f\	8a/ (8cc/L	.
8D/J	.	8bn/ 8dd/J)	.
=238	=238	=238	=238
4C/	2.r	2g\ 2cc\ (2ee-\	.
8D/L	.	.	.
8C/J	.	.	.
4GG\ 4G\	.	4g\ 4b-\ 4dd\)	.
8F\ 8A-\L	(8dd/L	[4b-\	.
8E-\ 8G\J	8ee-/J	.	.
=239	=239	=239	=239
4D\ 4F\	4.ff/	4b-\]	.
4D-\ 4F-\	.	4g\ 4b-\	.
.	8gg/	.	.
4C\ 4E-\	8ff/	4g\	.
.	4ee-/	.	.
4FFn/ 4C/	.	4a\	.
.	8ff/	.	.
=240	=240	=240	=240
*^	*	*	*
(4GG/ 4BB-/	2.r	8ee-/L	4b-\	.
.	.	8dd/	.	.
8DD/ 8BBn/L	.	8f/ 8a-/ 8dd/ 8ff/	2.r	.
8EE-/ 8C/J	.	8e-/ 8g/ 8cc/ 8ee-/J)	.	.
4FF;/) 4C;/	.	4c;/ 4an;/ 4cc;/	.	.
8B-/L	4F\	8dd/L	.	.
8c/J	.	8ee-/J	.	.
=241	=241	=241	=241	=241
4.d/	(1F	(4.ff/	8r	.
.	.	.	8a\	.
.	.	.	[4b-\	.
8e-/	.	8gg/	.	.
4.c/	.	4.ee-/	8b-\L]	.
.	.	.	8g-\J	.
.	.	.	[4a\	.
8d/)	.	8ff/)	.	.
=242	=242	=242	=242	=242
8c/L	2F\	(8ee-/L	8a\L]	.
8B-/	.	8dd/	8b-\J	.
8d/	.	8ff/	[4f\	.
8c/J	.	8ee-/J	.	.
4A/	4F\	4cc/)	4f\]	.
*v	*v	*	*	*
*clefG2	*	*	*
*^	*	*	*
8c/L	4B-\	(8ee-/L	8e-\L	.
8d/J	.	8ff/J	8f\J	.
=243	=243	=243	=243	=243
4.e-/	[1B-	4.gg/	8g\L	.
.	.	.	8a\J	.
.	.	.	4.b-\	.
8f/	.	8aa-/	.	.
4.d/	.	4.ff/	.	.
.	.	.	8an\	.
.	.	.	[4b-\	.
8e-/	.	8gg/)	.	.
=244	=244	=244	=244	=244
8d/L	2B-\]	(8ff/L	4b-\]	.
8c/	.	8ee-/	.	.
8e-/	.	8gg/	[4b-\	.
8d/J	.	8ff/J)	.	.
4B-/	4B-\	4dd/	4b-\]	.
8d/L	4B-\	(8ff/L	4r	.
8e-/J	.	8gg-/J	.	.
=245	=245	=245	=245	=245
4.f/	2B-\	4.aa-/	8r	.
.	.	.	8an\	.
.	.	.	[4b-\	.
8g-/	.	8bb-/	.	.
4e-/	4e-\	4gg-/)	4b-\]	.
8e-/L	4d-\	(8gg-/L	8g-\L	.
8f/J	.	8aa-/J	8a-\J	.
=246	=246	=246	=246	=246
4.g-/	1d-	4.bb-/	8b-\L	.
.	.	.	8ccn\J	.
.	.	.	[4dd-\	.
8a-/	.	8ccc-/	.	.
(8f/L	.	4aa-/)	8dd-\L]	.
8cc-/	.	.	8ff\	.
8b-/	.	8bb-/L	8gg-\	.
8a-/J)	.	8ccc-/J	8aa-\J	.
=247	=247	=247	=247	=247
4g-/	1d-	(4.ddd-/	4bb-\	.
[4b-/	.	.	[4gg-\	.
.	.	8eee-/	.	.
4b-/]	.	8ddd-/	4gg-\]	.
.	.	4ccc-/	.	.
[4a-/	.	.	[4ff\	.
.	.	8ddd-/	.	.
=248	=248	=248	=248	=248
4a-/]	1d-	8ccc-/	4ff\]	.
.	.	4aa/	.	.
4g-/	.	.	4gg-\	.
.	.	8ccc-/	.	.
(4dd-/	.	8bb-/L	8gg-'\L	.
.	.	8aa-/	8ff\	.
4cc-/)	.	8bb-/	8gg-\	.
.	.	8ccc-/J)	8aa-\J	.
=249	=249	=249	=249	=249
(8cc-/L	1d-	(8eee-/L	8aa-\L	.
8b-/	.	8ddd-/	8ff\J	.
8cc-/	.	8eee-/	[4gg-\	.
8b-/J)	.	8ddd-/J)	.	.
(8b-/L	.	(8ddd-/L	8gg-\L]	.
8a-/	.	8ccc-/	8ff-\J	.
8b-/	.	8ddd-/	[4ffn\	.
8a-/J)	.	8ccc-/J)	.	.
=250	=250	=250	=250	=250
(8a-/L	1d-	(8ccc-/L	8ff\L]	.
8g-/	.	8bb-/	8dd-\J	.
8ee-/	.	8ccc-/	[4gg-\	.
8dd-/J)	.	8bb-/J	.	.
(4dd-/	.	(8bb-/L)	8gg-\L]	.
.	.	8aa-/	8ff\	.
4cc-/)	.	8bb-/	8gg-\	.
.	.	8ccc-/J)	8aa-\J	.
=251	=251	=251	=251	=251
(8an/L	2d-\	(8eee-/L	8ff\L	.
8b-/	.	8ddd-/	8gg-\J	.
8cc-/	.	8dd-/	4gg-\	.
8b-/J	.	8ddd-/J	.	.
8gn/L)	2d-\	(8ddd-/L)	8ff-\L	.
8a-/	.	8ccc-/	8ffn\J	.
8b-/	.	8cc-/	4ff\	.
8a-/J	.	8ccc-/J)	.	.
=252	=252	=252	=252	=252
(8f/L	2d-\	(8ccc-/L	8ff\L	.
8g-/	.	8bb-/	8gg-\J	.
8a-/	.	8b-/	4gg-\	.
8g-/J	.	8bb-/J)	.	.
(8g-/L)	4d-\	(8bb-/L	4r	.
8f/	.	8aa-/	.	.
8g-/	4c-\	8bb-/	4dd-\	.
8a-/J)	.	8ccc-/J)	.	.
*v	*v	*	*	*
=253	=253	=253	=253
4B-/ 4b-/	(8eee-/	8dd\L	.
.	4ddd-/	8gg-\J	.
4A-/ 4a-/	.	4ff\ 4ccc-\	.
.	[8eee--/	.	.
*clefF4	*	*	*
4E-\ 4e-\	8eee--/L]	4gg-\ 4bb-\	.
.	8eee-/	.	.
4Dn\ 4dn\	8eeen/	4ff\ 4bb-\	.
.	8fff/J)	.	.
=254	=254	=254	=254
*^	*	*	*
4D-\ 4d-\	2r	(8aaa/L	4gg-\ 4bb-\	f
.	.	8ggg-/	.	.
[4DD-/ [4D-/	.	8fff/	4gg-\ 4bb-\	.
.	.	8eee-/J	.	.
8D-/L]	4DD-\]	4ddd-'/)	4ff\ 4aa-\	.
8C-/	.	.	.	.
8BB-/	4DD-\	4fff'/	4ff\ 4aa-\	.
8AA-/J	.	.	.	.
*v	*v	*	*	*
*	*v	*v	*
=255	=255	=255
8GGG-/ 8GG-/	2gg-\ 2bb-\ 2ddd-\ 2ggg-\	f
8D-\ 8G-\ 8B-\L	.	.
8D-\ 8G-\ 8B-\	.	.
8D-\ 8G-\ 8B-\J	.	.
8r	2B-/ 2d/ 2g-/	.
8BB-\ 8D-\ 8G-\L	.	.
8BB-\ 8D-\ 8G-\	.	.
8BB-\ 8D-\ 8G-\J	.	.
=256	=256	=256
8r	4d-'/ 4g-'/ 4b-'/	p
8D-\ 8G-\ 8B-\L	.	.
8r	4B-'/ 4d-'/ 4g-'/	.
8BB-\ 8D-\ 8G-\J	.	.
8r	4d-'/ 4g-'/ 4b-'/	.
8D-\ 8G-\ 8B-\L	.	.
8r	4c-'/ 4dn'/ 4f'/ 4a-'/	.
8C-\ 8Dn\ 8F\ 8A-\J	.	.
=257	=257	=257
*	*8va	*
8GGG-/ 8GG-/	2aa-\ 2ccc-\ 2dddn\ 2fff\ 2aaa-\	f
*	*X8va	*
8Dn\ 8F\ 8A-\ 8c-\L	.	.
8D\ 8A-\ 8c-\	.	.
8D\ 8A-\ 8c-\J	.	.
8r	2c-/ 2d/ 2f/ 2a-/	.
8C-\ 8D\ 8F\ 8A-\L	.	.
8C-\ 8D\ 8F\ 8A-\	.	.
8C-\ 8D\ 8F\ 8A-\J	.	.
=258	=258	=258
8r	4d'/ 4f'/ 4a-'/ 4cc-'/	p
8D\ 8F\ 8A-\ 8c-\L	.	.
8r	4c-'/ 4d'/ 4f'/ 4a-'/	.
8C-\ 8D\ 8F\ 8A-\J	.	.
8r	4d'/ 4f'/ 4a-'/ 4cc-'/	.
8D\ 8F\ 8A-\ 8c-\L	.	.
8r	4d-'/ 4f-'/ 4gn'/ 4b-'/	.
8D-\ 8F-\ 8Gn\ 8B-\J	.	.
=259	=259	=259
*	*8va	*
8GGG-/ 8GG-/	2bb-\ 2ddd-\ 2fff-\ 2bbb-\	f
*	*X8va	*
8F-\ 8B-\ 8d-\L	.	.
8F-\ 8B-\ 8d-\	.	.
8F-\ 8B-\ 8d-\J	.	.
8r	2d-/ 2f-/ 2gn/ 2b-/	.
8D-\ 8F-\ 8Gn\ 8B-\L	.	.
8D-\ 8G\ 8B-\	.	.
8D-\ 8G\ 8B-\J	.	.
=260	=260	=260
8r	4f-'/ 4g'/ 4b-'/ 4dd-'/	p
8F-\ 8G\ 8B-\ 8d-\L	.	.
8r	4d-'/ 4f-'/ 4g'/ 4b-'/	.
8D-\ 8F-\ 8G\ 8B-\J	.	.
8r	4f-'/ 4g'/ 4b-'/ 4dd-'/	.
8F-\ 8G\ 8B-\ 8d-\L	.	.
8r	4e--'/ 4g-'/ 4cc-'/	.
8E--\ 8G-\ 8c-\J	.	.
=261	=261	=261
*	*8va	*
8GGG-/ 8GG-/	2ccc-\ 2eee--\ 2ggg-\ 2cccc-\	f
*	*X8va	*
8G-\ 8c-\ 8e--\L	.	.
8G-\ 8c-\ 8e--\	.	.
8G-\ 8c-\ 8e--\J	.	.
8r	2e--/ 2g-/ 2cc-/	.
8E--\ 8G-\ 8c-\L	.	.
8E--\ 8G-\ 8c-\	.	.
8E--\ 8G-\ 8c-\J	.	.
=262	=262	=262
8r	4fn'/ 4a-'/ 4cc-'/ 4ddn'/	p
8Fn\ 8A-\ 8c-\ 8dn\L	.	.
8r	4dn'/ 4f'/ 4a-'/ 4cc-'/	<
8Dn\ 8F\ 8A-\ 8c-\J	.	.
8r	4f'/ 4a-'/ 4cc-'/ 4dd'/	.
8F\ 8A-\ 8c-\ 8d\L	.	.
8r	4f-'/ 4gn'/ 4b-'/ 4dd-'/	.
8F-\ 8Gn\ 8B-\ 8d-\J	.	.
=263	=263	=263
8r	4g'\ 4b-'\ 4dd-'\ 4ff-'\	.
8G\ 8B-\ 8d-\ 8f-\L	.	.
8r	4f-'\ 4g'\ 4b-'\ 4dd-'\	.
8F-\ 8G\ 8B-\ 8d-\J	.	.
8r	4g'\ 4b-'\ 4dd-'\ 4ff-'\	.
8G\ 8B-\ 8d-\ 8f-\L	.	.
8r	4g-'\ 4cc-'\ 4ee--'\	.
8G-\ 8c-\ 8e--\J	.	.
=264	=264	=264
8r	4g-'\ 4cc-'\ 4ee--'\ 4gg-'\	.
8G-\ 8c-\ 8e--\L	.	.
8r	4g-'\ 4cc-'\ 4ee--'\	.
8G-\ 8c-\ 8e--\J	.	.
8r	4g-'\ 4cc-'\ 4ee--'\ 4gg-'\	.
8G-\ 8c-\ 8e--\L	.	.
8r	4a-'\ 4cc-'\ 4dd'\ 4ffn'\	.
8A-\ 8c-\ 8d\ 8fn\J	.	.
=265	=265	=265
8r	4aa-'\ 4aaa-'\	.
8A-\ 8a-\L	.	.
8r	4gg-'\ 4ggg-'\	.
8G-\ 8g-\	.	.
8r	4ee-'\ 4eee-'\	.
8E-\ 8e-\	.	.
8r	4dd-'\ 4ddd-'\	.
8D-\ 8d-\J	.	.
=266	=266	=266
8r	4cc-\ 4ccc-\	.
8C-\ 8c-\L	.	.
8r	4b-'\ 4bb-'\	.
8BB-\ 8B-\	.	.
8r	4a-'\ 4aa-'\	.
8AA-\ 8A-\	.	.
8r	4g-'\ 4gg-'\	.
8GG-\ 8G-\J	.	.
=267	=267	=267
8r	4e-'/ 4ee-'/	.
8EE-/ 8E-/L	.	.
8r	4d-'/ 4dd-'/	.
8DD-/ 8D-/J	.	.
8r	4c-'/ 4cc-'/	.
8CC-/ 8C-/L	.	.
8r	4B-'/ 4b-'/	.
8BBB-/ 8BB-/J	.	.
=268	=268	=268
*^	*	*
4A-'/	8r	4a-'/	.
.	8AAA-\ 8AA-\L	.	.
4G-'/	8r	4g-'/	.
.	8GGG-\ 8GG-\J	.	.
4E-'/	8r	4e-'/	.
.	8EE-\L	.	.
4D-'/	8r	4d-'/	.
.	8DD-\J	.	.
*v	*v	*	*
=269	=269	=269
8r	4f/	.
8FF/L	.	.
8r	4d-/	.
8DD-/J	.	.
8r	4a-/	.
8AA-/L	.	.
8r	4d-/	.
8DD-/J	.	.
=270	=270	=270
8r	4dd-\	>
8D-/L	.	.
8r	4d-/	.
8DD-/J	.	.
8r	4ff\	.
8F/L	.	.
8r	4d-/	p
8DD-/J	.	.
=271	=271	=271
8r	4aa-\	.
8A-/L	.	.
8r	4d-/	.
8DD-/J	.	.
8r	4ddd-\	.
8d-/L	.	.
8r	4d-/	.
8DD-/J	.	.
=272	=272	=272
8r	4ddd-\	.
8d-\	.	.
8r	4d-/	.
8DD-/	.	.
8r	4.ccc#;\	pp
4F#;\ 4c#;\	.	.
8BBBn/	8r	ff
=273	=273	=273
*k[f#c#]	*k[f#c#]	*k[f#c#]
4.F#\ 4.B\ 4.d\	4r	.
.	8r	.
8F#\ 8B\ 8d\	8dd\ 8ff#\ 8bb\ 8ddd\	ff
4F#'\ 4B'\ 4d'\	4dd'\ 4ff#'\ 4bb'\ 4ddd'\	.
8F#'\ 8B'\ 8d'\L	8dd'\ 8ff#'\ 8bb'\ 8eee'\L	.
8F#'\ 8B'\ 8d'\J	8dd'\ 8ff#'\ 8bb'\ 8ddd'\J	.
=274	=274	=274
4F#'\ 4B'\ 4d'\	4dd'\ 4ff#'\ 4bb'\ 4ddd'\	.
4D'\ 4F#'\ 4B'\	4b'\ 4dd'\ 4ff#'\ 4bb'\	.
4r;	4.r;	.
8r	.	.
8BB/	8r	.
=275	=275	=275
4.d\	4r	.
.	4dd\ 4ff#\ 4bb\ 4ddd\	pp
8BB/	.	.
4.d\	4r	.
.	4dd\ 4ff#\ 4bb\ 4ddd\	.
8BB/	.	.
=276	=276	=276
4.d\	4r	.
.	4dd\ 4gg\ 4bb\ 4ddd\	.
8GG/	.	.
4.B\	4r	.
.	4dd\ 4gg\ 4bb\ 4ddd\	.
8GG/	.	.
=277	=277	=277
4.B\	4r	.
.	4dd\ 4gg\ 4bb\ 4ddd\	.
8GG/	.	.
4.B\	4r	.
.	4dd\ 4gg\ 4bb\ 4ddd\	.
8GG/	.	.
=278	=278	=278
4.B\	4r	.
.	4ee-\ 4gg\ 4cccn\ 4eee-\	<
8CCn/	.	.
4.E-\	4r	.
.	4ee-\ 4gg\ 4ccc\ 4eee-\	.
8CC/	.	.
=279	=279	=279
*k[b-e-]	*k[b-e-]	*k[b-e-]
4.E-\	4r	.
.	4ee-\ 4gg\ 4ccc\ 4eee-\	.
8CC/	.	.
4.E-\	4r	.
.	4ee-\ 4gg\ 4ccc\ 4eee-\	.
8CC/	.	.
=280	=280	=280
4.E-\	4r	.
.	4ee-\ 4aa\ 4ccc\ 4eee-\	.
8FFF/	.	.
4.AA/	4r	.
.	4ee-\ 4aa\ 4ccc\ 4eee-\	.
8FFF/	.	.
=281	=281	=281
4.AA/	4r	.
.	4ee-\ 4aa\ 4ccc\ 4eee-\	.
8FF/	.	.
4.CC/	4r	.
*	*8va	*
.	4aa\ 4ccc\ 4eee-\ 4aaa\	.
8FF/	.	.
=282	=282	=282
4.AAA/	4r	.
.	4ccc\ 4eee-\ 4aaa\ 4cccc\	.
8FF/	.	.
4.GGG-/	4r	.
.	4eee-\ 4aaa\ 4cccc\ 4eeee-\	.
8FF/	.	.
=283	=283	=283
4FFF/ 4FF/	4eee-\ 4aaa\ 4cccc\ 4eeee-\	>
*	*X8va	*
*clefG2	*	*
8gg-\L	8ccc\ (8eee-\L	.
8ff\J	8bbn\ 8ddd\J	.
4gg-\	4ccc\ 4eee-\)	.
8ff\L	8a\ (8cc\L	.
8een\J	8b-\ 8dd-\J	.
=284	=284	=284
4ff\	4a\ 4cc\)	.
(8g-/L	8cc\ (8ee-\L	.
8f/J	8bn\ 8dd\J	.
4g-/)	4cc\ 4ee-\)	.
(8f/L	(8aa\L	.
8e-/J)	8ccc\J)	.
*clefF4	*	*
=285	=285	=285
4F\ 4A\ 4c\ 4e-\	(8eee-\L	p
.	8fff\	.
8r	8eee-\	<
8F\	8ddd\J	.
4A\	8eee-\L	.
.	8fff\	.
8r	8ggg\	.
8c\	8eee-\J	.
=286	=286	=286
4e-\	8ccc\L	.
.	8ddd\	.
*clefG2	*	*
8r	8eee-\	.
(8a/	8ccc\J	.
4cc/)	8aa\L	.
.	8bb-\	.
(8ee-/L	8ccc\	.
8cc/J)	8aa\J)	.
=287	=287	=287
8g/L	(8ee-\L	p
8a/	8ff\	.
8b-/	8gg\	.
8g/J	8ee-\J	.
8e-/L	8cc\L	.
8f/	8dd\	.
8g/	8ee-\	.
8e-/J	8cc\J	.
=288	=288	=288
8c/L	8a\L	.
8d/	8b-\	.
8e-/	8cc\	.
8c/J	8a\J	.
8A/L	4c/ 4e-/ 4f/)	.
8B-/	.	.
8c/	4r	.
8A/J	.	.
*clefF4	*	*
=289	=289	=289
4F\ 4B-\ 4d\	(8ddd\L	<
.	8eee-\	.
8r	8ddd\	.
8F\	8ccc\J	.
4B-\	8ddd\L	.
.	8eee-\	.
8r	8fff\	.
8d\	8ddd\J	.
=290	=290	=290
4f\	8bb-\L	.
.	8ccc\	.
*clefG2	*	*
8r	8ddd\	.
(8b-\	8bb-\J	>
4dd\)	8ff\L	.
.	8aa\	.
(8d/L	8bb-\	.
8B-/J)	8ff\J)	.
=291	=291	=291
8b-\L	(8dd\L	p
8cc\	8ee-\	.
8dd\	8ff\	.
8b-\J	8dd\J	.
8d/L	8b-\L	.
8e-/	8cc\	.
8f/	8dd\	.
8d/J	8b-\J	.
=292	=292	=292
8B-/L	8f/L	.
8c/	8a/	.
8d/	8b-/	.
8B-/J	8d/J	.
8dd\L	8b-\L	.
8ee-\	8cc\	.
8ff\	8dd\	.
8dd\J	8b-\J)	.
=293	=293	=293
8ee-\L	4f/ 4a/ 4cc/	<
8ff\	.	.
8ee-\	8ggg\L	.
8dd\J	8fff\J	.
8ee-\L	8ggg\L	.
8ff\	8fff\	.
8gg\	8eee-\	.
8ee-\J	8ggg\J	.
=294	=294	=294
8cc\L	8eee-\L	.
8dd\	8ddd\	.
8ee-\	8ccc\	.
8cc\J	8eee-\J	.
8a\L	8ccc\L	>
8b-\	8bb-\	.
8cc\	8aa\	.
8a\J	8ccc\J	.
=295	=295	=295
*clefF4	*	*
8e-\L	8gg-\L	p
8f\	8ff\	.
8g-\	8ee-\	.
8e-\J	8gg-\J	.
8c\L	8ee-\L	.
8d\	8dd\	.
8e-\	8cc\	.
8c\J	8ee-\J	.
=296	=296	=296
8A\L	8cc\L	.
8B-\	8b-\	.
8c\	8a\	.
8A\J	8cc\J	.
*clefG2	*	*
8cc\L	8e-/L	.
8b-\	8d/	.
8a\	8c/	.
8cc\J	8e-/J	.
=297	=297	=297
8dd\L	4f/ 4b-/	.
8ee-\	.	.
8dd\	8fff\L	<
8cc\J	8eee-\J	.
8dd\L	8fff\L	.
8ee-\	8eee-\	.
8ff\	8ddd\	.
8dd\J	8fff\J	.
=298	=298	=298
8b-\L	8ddd\L	.
8cc\	8ccc\	.
8dd\	8bb-\	.
8b-\J	8ddd\J	>
8f/L	8ff\L	.
8a/	8ee-\	.
8b-/	8dd\	.
8f/J	8ff\J	.
*clefF4	*	*
=299	=299	=299
8d\L	8bb-\L	p
8e-\	8gg\	.
8f\	8ff\	.
8d\J	8bb-\J	.
8B-\L	8ff\L	.
8c\	8ee-\	.
8d\	8dd\	.
8B-\J	8ff\J	.
=300	=300	=300
*	*^	*
8F\L	8ddd/L	2dd\	<
8A\	8ccc/	.	.
8B-\	8bb-/	.	.
8F\J	8ddd/J	.	.
8E-\L	8eee-/L	2gg-\	>
(8A\	8ccc/	.	.
8F\	8ddd/	.	.
8E-\J	8eee-/J	.	.
*	*v	*v	*
=301	=301	=301
4D\	4ff\ 4fff\	p
4BB-\ 4B-\	4r	.
8E-\ 8G\)	2r	.
8r	.	.
(8e-\L	.	.
8c\J	.	.
=302	=302	=302
4A\	4r	.
4F\ 4f\	4a\ 4cc\	.
8B-\ 8d\)	8b-\ 8dd\	.
8r	8r	.
4r	8bb-\L	.
.	8aa\J	.
=303	=303	=303
*^	*	*
4r	2.r	4bb-\	.
(4DD/ 4FF-/ 4GGn/ 4BB-/	.	4gg\ 4bb-\ (4ggg\	.
4EE-/ 4AA/ 4C/	.	4ff\ 4aa\ 4fff\	.
(8D/L	4EE-\) 4BB-\	4een\ 4gg\ 4eeen\)	.
8E-/J	.	.	.
=304	=304	=304	=304
*	*	*^	*
4E-/	4AA\	4gg\ 4bb-\ 4ggg\	2.r	.
8.F/L	4AA\	4ff\ 4aa\ 4fff\	.	.
16Gn/Jk	.	.	.	.
4A/)	4AA\	4aa\ 4fff\	.	.
4r	(8BB-\L	8b-\L	8ff/L	.
.	8C\J)	8cc\J	8ee-/J	.
*v	*v	*	*	*
=305	=305	=305	=305
4D/	4dd/	4r	.
4FF/ 4AA/	4bb-/	4.b-\	.
8GG/ 8BB-/	8gg/	.	.
8r	8r	8r	.
(8E-\L	8eee-/L	8ee-\L	.
8G\J	8ccc/J	8gg\J	.
=306	=306	=306	=306
*clefG2	*	*	*
4ff\	4aa/	4r	.
4a\ 4cc\	4fff/	4.ff\	.
8b-\ 8dd\)	8ddd/	.	.
8r	8r	8r	.
8g/L	8bb-/L	4r	.
8f#/J	8aa/J	.	.
=307	=307	=307	=307
4g/	4bb-/	4r	.
(4g/ 4b-/ 4ee-/	4r	4gg\ (4ggg\	.
4g/ 4cc/	4r	4ee-\ 4gg\ 4eee-\	.
4f#/) 4a/	4r	4dd\ 4aa\ 4ddd\)	.
=308	=308	=308	=308
(4f#/ 4a/	2.ddd/	4dd\	.
4d/ 4f#/	.	(8ccc\L	.
.	.	8bb-\J)	.
4g/) 4b-/	.	4bb-'\	.
(8fn/ 8a-/L	4ggg/	[4bb-\ 4ddd-\	.
8en/) 8g/J	.	.	.
=309	=309	=309	=309
(4en/ 4g/	2.ccc/	4bb-\]	.
4c/ 4e/	.	(8bb-\L	.
.	.	8aa-\J)	.
4f/) 4a-/	.	4aa-'\	.
(8e-/ 8g-/L	4fff/	[4aa-\ 4ccc-\	.
8d/) 8f/J	.	.	.
=310	=310	=310	=310
4d/ 4f/	2.bb-/	4aa-\]	.
4B-/ 4d/	.	(8aa-\L	.
.	.	8gg\J)	.
4e-/ 4gn/	.	4gg'\	.
8d/ 8f/L	4eeen/	(4gg\ 4bb-\	.
8c#/ 8en/J	.	.	.
=311	=311	=311	=311
(4c#/ 4en/	2.aan/)	4gg\	.
4A/ 4c#/	.	(8gg\L	.
.	.	8ff\J)	.
4d/) 4f/	.	4ff'\	.
(8cn/ 8e-/L	4ddd/	4ff\ 4aa-\	.
8Bn/) 8d/J	.	.	.
*clefF4	*	*	*
=312	=312	=312	=312
*^	*	*	*
4r	4Bn\ 4d\	(8aa-/	4ff\	.
.	.	4gg/	.	.
4e-/	8c\L	.	4ee-\	.
.	8B-\J	8ccc/)	.	.
4c/	4A\	(8gg-/	4ee-\	.
.	.	4ff/	.	.
4d/	8B-\L	.	4dd\	.
.	8D\J	(8bb-/)	.	.
*v	*v	*	*	*
*	*v	*v	*
=313	=313	=313
[1C [1F [1e-	8ff\L	<
.	8fff\	.
.	8eeen\	.
.	8eee-\J	.
.	8ccc\L	.
.	8aa\	.
.	8gg-\	.
.	8ff\J	.
=314	=314	=314
*	*^	*
2C\] 2F\] 2e-\]	2r	8een\L	.
.	.	8ee-\	.
.	.	8cc\	.
.	.	(8a\J)	>
2D\ 2F\ 2d\	4b-/	8g-\L	.
.	.	8f\J)	.
.	8ggn/L	4b-\	.
.	8ff/J	.	.
*	*v	*v	*
=315	=315	=315
[1CC [1FF [1E-	8ff\L	<
.	8fff\	.
.	8eeen\	.
.	8eee-\J	.
.	8ccc\L	.
.	8aa\	.
.	8gg-\	.
.	8ff\J	.
=316	=316	=316
*	*^	*
2CC/] 2FF/] 2E-/]	2r	8een\L	>
.	.	8ee-\	.
.	.	8cc\	.
.	.	(8a\J	.
2DD/ 2FF/ 2D/	4b-/	8g-\L	.
.	.	8f\J)	.
.	8ggn/L	4b-\	.
.	8ff/J	.	.
=317	=317	=317	=317
2DD/ 2D/	(8ff/L	8r	.
.	8bb-/	8dd\L	.
.	8ddd/	8ff\	.
.	8ccc/J	8ee-\J	.
2GG/ 2G/	[2bb-/	8dd\L	.
.	.	8ff\	.
.	.	8gg#\	.
.	.	8dd\J	.
=318	=318	=318	=318
2EEn/ 2En/	2bb-/]	8dd-\L	.
.	.	8ff#\	.
.	.	8gg\	.
.	.	8dd-\J	.
4FF/ 4F/	4aa/)	8cc\L	.
.	.	8ffn\J	.
4r	4r	(8ff\L	.
.	.	8fff\J)	.
*clefG2	*	*	*
*	*v	*v	*
=319	=319	=319
*	*8va	*
[1c [1f [1ee-	8fff\L	<
.	8ffff\	.
.	8eeeen\	.
.	8eeee-\J	.
.	8cccc\L	.
.	8aaa\	.
.	8ggg-\	.
.	8fff\J	.
*	*X8va	*
=320	=320	=320
*	*^	*
2c/] 2f/] 2ee-/]	2r	8eeen\L	.
.	.	8eee-\	.
.	.	8ccc\	.
.	.	8aa\J	.
2d/ 2f/ 2dd/	4bb-/	8gg-\L	>
.	.	8ff\J	.
.	(8gggn^/L	4bb-\	.
.	8fff/J)	.	.
*clefF4	*	*	*
*	*v	*v	*
=321	=321	=321
[1C [1F [1e-	8r	.
.	8fff\L	<
.	8eeen\	.
.	8eee-\J	.
.	8ccc\L	.
.	8aa\	.
.	8gg-\	.
.	8ff\J	.
=322	=322	=322
*	*^	*
2C\] 2F\] 2e-\]	8een/L	2r	.
.	8ee-/	.	.
.	8cc/	.	.
.	(8a/J	.	>
2D\ 2F\ 2d\	4b-/	8g-\L	.
.	.	8f\J)	.
.	8ggn/L	4b-\	.
.	8ff/J	.	.
=323	=323	=323	=323
2D\ 2d\	(8ff/L	8r	.
.	8bb-/	8dd\L	.
.	8ddd/	8ff\	.
.	8ccc/J	8ee-\J	.
2G\ 2g\	[2bb-/	8dd\L	.
.	.	8ff#\	.
.	.	8gg\	.
.	.	8dd\J	.
=324	=324	=324	=324
2En\ 2en\	2bb-/]	8dd-\L	.
.	.	8ff#\	.
.	.	8gg\	.
.	.	8dd-\J	.
4F\ 4f\	4aa/	8cc\L	.
.	.	8ffn\	.
4G-\ 4g-\	4bb-/)	8b-\	.
.	.	8ee-\J	.
*clefG2	*	*	*
=325	=325	=325	=325
*	*8va	*8va	*
2Gn/ 2gn/	8bb-/L	8r	<
.	8eee-/	8gg\L	.
.	8ggg/	8bb-\	.
.	8fff/J	8aa-\J	.
2c/ 2cc/	([2eee-/	8gg\L	.
.	.	8bbn\	.
.	.	8ccc\	.
.	.	8gg\J	.
=326	=326	=326	=326
2A/ 2a/	2eee-/]	8gg-\L	.
.	.	8bbn\	.
.	.	8ccc\	.
.	.	8gg-\J	.
4B-/ 4b-/	4ddd/	8ff\L	.
.	.	8bb-\	.
4c-/ 4cc-/	4eee-/)	8ee-\	.
.	.	8aa-\J	.
=327	=327	=327	=327
2cn/ 2ccn/	(4eee-/	8r	.
.	.	8ccc\L	.
.	4aaa-/)	8eee-\	.
.	.	8ddd-\J	.
2f-/ 2ff-/	[2aaa-/	8ddd-\L	.
.	.	8ccc-\	.
.	.	8bb-\	.
.	.	8ccc-\J	.
=328	=328	=328	=328
2dn/ 2ddn/	2aaa-/]	8ccc-\L	.
.	.	8eeen\	.
.	.	8fffn\	.
.	.	8ccc-\J	.
[2e-/ [2ee-/	[2ggg/	8bb-\L	.
.	.	8dddn\	.
.	.	8eee-\	.
.	.	8bb-\J	.
=329	=329	=329	=329
4e-/] 4ee-/]	4ggg/]	4gg\	.
*clefF4	*	*	*
4EE-/ 4E-/	2.r	4gg'\ 4bb-'\ 4eee-'\ 4ggg'\	ff
2r	.	4ddd'\ 4fff'\	.
.	.	8eee-'\ 8ggg'\L	.
.	.	8fff'\ 8aaa-'\J	.
*	*v	*v	*
=330	=330	=330
4r	4ggg'\ 4bbb-'\	.
*clefG2	*	*
4e-'/ 4g'/	4eee-'\ 4ggg'\	ff
4d'/ 4f'/	2r	.
8e-'/ 8g'/L	.	.
8f'/ 8a-'/J	.	.
=331	=331	=331
4g'/ 4b-'/	4r	.
*clefF4	*	*
4EE-'/ 4E-'/	4gg'\ 4bb-'\ 4eee-'\ 4ggg'\	ff
2r	4ddd'\ 4fff'\	.
.	8eee-'\ 8ggg'\L	.
.	8fff'\ 8aaa-'\J	.
=332	=332	=332
4r	4ggg'\ 4bbb-'\	.
*	*X8va	*
4EEn'/ 4En'/	4b-'\ 4cc'\ 4gg'\ 4bb-'\	.
4r	4r	.
4CC'/ 4C'/	4b-'\ 4een'\ 4gg'\ 4bb-'\	.
=333	=333	=333
4r	4r	.
4FF'/ 4F'/	4b-'\ 4dd'\ 4ff'\ 4bb-'\	.
4r	4r	.
4GG'/ 4G'/	4b-'\ 4cc'\ 4een'\ 4bb-'\	.
=334	=334	=334
8FF/L	2b-\ 2dd\ 2ff\ 2bb-\	.
8AA/	.	.
8BB-/	.	.
8D/J	.	.
8F\L	[2dd\ [2ff\	.
8A\	.	.
8B-\	.	.
8d\J	.	.
*clefG2	*	*
=335	=335	=335
8f/L	4dd\] (4ff\]	.
8a/	.	.
8b-/	8dd\)	.
8dd/J	8r	.
2r	8ff\L	<
.	8aa\	.
.	8bb-\	.
.	8ddd\J	.
=336	=336	=336
*	*8va	*
8een\L	8eeen\L	.
8ff\	8fff\	.
8gg\	8ggg\	.
8ff\J	8fff\J	.
8aa\L	8aaa\L	.
8bb-\	8bbb-\	.
8ccc\	8cccc\	.
8bb-\J	8bbb-\J	.
=337	=337	=337
8ccc#\L	8cccc#\L	.
8ddd\	8dddd\	.
8eee-\	8eeee-\	.
8ddd\J	8dddd\J	.
4fff\	4ffff\	.
*	*X8va	*
12f/L	4ccn\ 4ee-\	p
12g/	.	.
12a/J	.	.
=338	=338	=338
*	*^	*
6B-/	(2dd/	1dd	.
6b-/	.	.	.
6a/	.	.	.
6b-/	2ddd/	.	.
6a/	.	.	.
6b-/	.	.	.
=339	=339	=339	=339
6g-/	2eee-/	2ee-\	.
6b-/	.	.	.
6g-/	.	.	.
6b-/	2ggg-/)	2gg-\	.
6e-/	.	.	.
6b-/	.	.	.
=340	=340	=340	=340
6d/	[1bb-	2r	.
6b-/	.	.	.
6f/	.	.	.
6B-/	.	2dd\ 2ff\	.
6b-/	.	.	.
6f/	.	.	.
=341	=341	=341	=341
6e-/	(4bb-/]	2gg-\	.
6b-/	.	.	.
.	4ggg-/	.	.
6e-/	.	.	.
6g-/	2eee-/)	2ee-\	.
6b-/	.	.	.
6g-/	.	.	.
*	*v	*v	*
=342	=342	=342
6f/	2dd-\ (2ddd-\	.
6b-/	.	.
6f/	.	.
6bn/	2ddn\ 2dddn\	.
6f/	.	.
6b/	.	.
=343	=343	=343
6f/	2ff\ 2fff\	.
6cc/	.	.
6a/	.	.
*clefF4	*	*
6F\	4.ee-\ 4.eee-\	.
6c\	.	.
6A\	.	.
.	8cc\ 8ccc\)	.
=344	=344	=344
*	*^	*
8BB-\L	[1bb-	1dd 1ddd	.
8B-\	.	.	.
8d\	.	.	.
8B-\J	.	.	.
8F\L	.	.	.
8B-\	.	.	.
8a-\	.	.	.
8B-\J	.	.	.
*clefG2	*	*	*
=345	=345	=345	=345
8G/L	2ee-/ 2eee-/	1bb-_	.
8B-/	.	.	.
8g/	.	.	.
8B-/J	.	.	.
*clefF4	*	*	*
8E-\L	2gg/ 2ddd/ 2ggg/	.	.
8B-\	.	.	.
8g\	.	.	.
8B-\J	.	.	.
=346	=346	=346	=346
8D\L	1bb-_ 1bbb-	1bb-	.
8B-\	.	.	.
8f\	.	.	.
8B-\J	.	.	.
8BB-\L	.	.	.
8B-\	.	.	.
8d\	.	.	.
8B-\J	.	.	.
=347	=347	=347	=347
8E-\L	2gg/ 2ggg/	1bb-_	.
8B-\	.	.	.
8g\	.	.	.
8B-\J	.	.	.
*clefG2	*	*	*
8G/L	2ee-/ 2eee-/	.	.
8B-/	.	.	.
8g/	.	.	.
8B-/J	.	.	.
*clefF4	*	*	*
=348	=348	=348	=348
8F\L	1bb-]	4dd-/ (4ddd-/	.
8B-\	.	.	.
8A\	.	2ddn/ 2dddn/	.
8B-\J	.	.	.
8F\L	.	.	.
8D\	.	.	.
8C\	.	4ff/ 4fff/)	.
8BB-\J	.	.	.
=349	=349	=349	=349
8FF/L	([2fff/	1aa	.
8GG/	.	.	.
8AA/	.	.	.
8BB-/J	.	.	.
8C/L	8fff/L]	.	.
8D/	8eee-/	.	.
8E-/	8ccc/	.	.
8F/J	8fff/J)	.	.
*	*v	*v	*
=350	=350	=350
8BBB-/L	4ff\ 4aa-\ 4ddd\ 4fff\	ff
8BB-/	.	.
*	*8va	*
8BBB-/	2fff\ 2aaa-\ 2dddd\ 2ffff\	.
8BB-/J	.	.
8BBB-/L	.	.
8BB-/	.	.
8BBB-/	4eee-'\ 4fff'\ 4aaa-'\ 4eeee-'\	.
8BB-/J	.	.
=351	=351	=351
8BBB-/L	4ddd'\ 4fff'\ 4aaa-'\ 4dddd'\	.
8BB-/	.	.
8BBB-/	4eee-'\ 4fff'\ 4aaa-'\ 4eeee-'\	.
8BB-/J	.	.
8BBB-/L	4fff'\ 4aaa-'\ 4ffff'\	.
8BB-/	.	.
8BBBn/	4ddd'\ 4fff'\ 4ggg'\ 4dddd'\	p
8BBn/J	.	.
=352	=352	=352
8CC/L	4eee-'\ 4ggg'\ 4eeee-'\	.
8C/	.	.
8BBBn/	4ddd'\ 4fff'\ 4ggg'\ 4dddd'\	.
8BBn/J	.	.
8CC/L	4eee-'\ 4ggg'\ 4eeee-'\	.
8C/	.	.
8EE-/	4ccc'\ 4ggg'\ 4cccc'\	.
8E-/J	.	.
=353	=353	=353
8EEn/L	4ccc'\ 4ggg'\ 4bbb-'\	.
8En/	.	.
8GG/	4ccc'\ 4eeen'\ 4bbb-'\	.
8G/J	.	.
8FF/L	4ccc\ 4eee-\ 4aaan\	.
8F/	.	.
8FF/	4ccc'\ 4eee-'\ 4cccc'\	.
8F/J	.	.
=354	=354	=354
8FF\L	4bb-'\ 4ddd'\ 4bbb-'\	<
8F\	.	.
8BB-\	4ff'\ 4ddd'\ 4fff'\	.
8B-\J	.	.
8FF\L	4aa'\ 4eee-'\ 4fff'\ 4aaa'\	.
8F\	.	.
8F\	4ccc'\ 4eee-'\ 4fff'\ 4cccc'\	.
8f\J	.	.
=355	=355	=355
8FF\L	4bb-'\ 4ddd'\ 4fff'\ 4bbb-'\	.
8F\	.	.
8BB-\	4ff'\ 4ddd'\ 4fff'\	.
8B-\J	.	.
8FF\L	4aa'\ 4eee-'\ 4fff'\ 4aaa'\	.
8F\	.	.
8F\	4ccc'\ 4eee-'\ 4fff'\ 4cccc'\	.
*	*X8va	*
8f\J	.	.
=356	=356	=356
8BB-\L	8b-\L	f
8B-\	8bb-\	.
8FF\	8f\	.
8F\J	8ff\J	.
8AA\L	8a\L	.
8A\	8aa\	.
8C\	8cc\	.
8c\J	8ccc\J	.
=357	=357	=357
8BB-\L	8b-\L	f
8B-\	8bb-\	.
8FF\	8f\	.
8F\J	8ff\J	.
8AAA/L	8a\L	.
8AA/	8aa\	.
8CC/	8cc\	.
8C/J	8ccc\J	.
=358	=358	=358
8BBB-/L	8b-\L	.
8BB-/	8bb-\	.
8FFF/	8f\	.
8FF/J	8ff\J	.
8BBBn/L	8bn\L	.
8BBn/	8bbn\	.
8DD/	8dd\	.
8D/J	8ddd\J	.
=359	=359	=359
8CC/L	8cc\L	.
8C/	8ccc\	.
8GGG/	8g\	.
8GG/J	8gg\J	.
8BBBn/L	8bn\L	.
8BBn/	8bbn\	.
8DD/	8dd\	.
8D/J	8ddd\J	.
=360	=360	=360
8CC/L	8cc\L	.
8C/	8ccc\	.
8GGG/	8g\	.
8GG/J	8gg\J	.
8CC/L	8cc\L	.
8C/	8ccc\	.
8EE-/	8ee-\	.
8E-/J	8eee-\J	.
=361	=361	=361
8DD/L	8dd\L	.
8D/	8ddd\	.
8AAA/	8a\	.
8AA/J	8aa\J	.
8CC#/L	8cc#\L	.
8C#/	8ccc#\	.
8EEn/	8een\	.
8En/J	8eeen\J	.
=362	=362	=362
8DD/L	8dd\L	.
8D/	8ddd\	.
8AAA/	8a\	.
8AA/J	8aa\J	.
8DD/L	8dd\L	.
8D/	8ddd\	.
8FF/	8ff\	.
8F/J	8fff\J	.
=363	=363	=363
8EE-/L	8ee-\L	.
8E-/	8eee-\	.
8BBB-/	8b-\	.
8BB-/J	8bb-\J	.
8DD/L	8dd\L	.
8D/	8ddd\	.
8FF/	8ff\	.
8F/J	8fff\J	.
=364	=364	=364
8EE-/L	8ee-\L	.
8E-/	8eee-\	.
8BBB-/	8b-\	.
8BB-/J	8bb-\J	.
8EE-/L	8ee-\L	.
8E-/	8eee-\	.
8GG-/	8gg-\	.
8G-/J	8ggg-\J	.
=365	=365	=365
8FF/L	8ff\L	.
8F/	8fff\	.
8CC/	8cc\	.
8C/J	8ccc\J	.
8EE-/L	8ee-\L	.
8E-/	8eee-\	.
8GG-/	8gg-\	.
8G-/J	8ggg-\J	.
=366	=366	=366
8DD-/L	8dd-\L	.
8D-/	8ddd-\	.
8AAAn/	8an\	.
8AAn/J	8aan\J	.
8CC/L	8cc\L	.
8C/	8ccc\	.
8EE-/	8ee-\	.
8E-/J	8eee-\J	.
=367	=367	=367
8GGG-/L	8g-\L	.
8GG-/	8gg-\	.
8FFF/	8f\	.
8FF/J	8ff\J	.
8AAA/L	8a\L	.
8AA/	8aa\	.
8EE-/	8ee-\	.
8E-/J	8eee-\J	.
=368	=368	=368
*	*^	*
2BBB-/ 2BB-/	(1ddn	8cc-\L	p
.	.	8b-\	.
.	.	8cc-\	.
.	.	8b-\J	.
2AA-/ 2A-/	.	8cc-\L	.
.	.	8b-\	.
.	.	8cc-\	.
.	.	8b-\J	.
=369	=369	=369	=369
2GG-/ 2G-/	2ee-/	8cc-\L	.
.	.	8b-\	.
.	.	8cc-\	.
.	.	8b-\J	.
2EE-/ 2E-/	2gg-/)	8cc-\L	.
.	.	8b-\	.
.	.	8cc-\	.
.	.	8b-\J	.
=370	=370	=370	=370
2DD/ 2D/	(1bb-	8cc-\L	.
.	.	8b-\	.
.	.	8cc-\	.
.	.	8b-\J	.
2BBB-/ 2BB-/	.	8cc-\L	.
.	.	8b-\	.
.	.	8cc-\	.
.	.	8b-\J	.
=371	=371	=371	=371
2EE-/ 2E-/	2gg-/	8cc-\L	.
.	.	8b-\	.
.	.	8cc-\	.
.	.	8b-\J	.
4G-\ 4B-\	2ee-/)	8cc-\L	.
.	.	8b-\J	.
4Gn\ [4B-\	.	[4b-\	.
*	*v	*v	*
=372	=372	=372
*^	*	*
1B-_	4F\	1b-_ (1dd	.
.	4G\	.	.
.	4A-\	.	.
.	4F\	.	.
=373	=373	=373	=373
*	*	*^	*
1B-_	4G\	2.ee-/	1b-_	.
.	4A-\	.	.	.
.	4G\	.	.	.
.	4E-\	4gg/)	.	.
=374	=374	=374	=374	=374
1B-_	4D\	(2.bb-/	1b-]	.
.	4E-\	.	.	.
.	4F\	.	.	.
.	4D\	4aa-/	.	.
=375	=375	=375	=375	=375
1B-_	4E-\	4gg/	[1b-	.
.	4F\	4ff/	.	.
.	4G\	4ee-/	.	.
.	4A-\	4dd/)	.	.
=376	=376	=376	=376	=376
1B-_	2.G\	(2.ee-/	1b-_	.
.	4A-\	4dd/	.	.
=377	=377	=377	=377	=377
1B-]	2.G\	4ff/	1b-]	.
.	.	2ee-/	.	.
.	4F\	4dd/)	.	.
*v	*v	*	*	*
*	*v	*v	*
=378	=378	=378
1F; 1B-; 1d;	1b-; 1dd;	p
=379	=379	=379
4r	(8dd\L	p
.	8ee-\	.
*clefG2	*	*
8b-/L	8dd\	.
8a/J	8cc\J	.
8g/L	8b-\L	.
8f/	8a\	.
8g/	8b-\	.
8a/J	8cc\J	.
=380	=380	=380
8b-\L	8dd\L	.
8cc\	8ee-\	.
8dd\	8ff\	.
8ee-\J	8gg\J	.
8ff\L	8aa\L	.
8gg\	8bb-\	.
8aa\	8ccc\)	.
8bb-\J	8ddd\J	.
*clefF4	*	*
=381	=381	=381
8r	(8eee-\L	.
8FF/L	8fff\	.
8GG/	8eee-\	.
8AA/J	8ddd\J	.
8BB-/L	8ccc\L	.
8C/	8bb-\	.
8D/	8aa\	.
8E-/J	8gg\J	.
=382	=382	=382
8F\L	8ff\L	.
8G\	8ee-\	.
8A\	8dd\	.
8B-\J	8cc\J	.
8c\L	8b-/L	.
8d\	8a/	.
8e-\	8g/	.
8d\J	8f/J)	.
=383	=383	=383
4.B-\ 4.d\	4.f/ 4.dd/	pp
8B-\ 8d\	8f/ 8dd/	.
4B-\ 4d\	4f/ 4dd/	.
8r	8r	.
8BBBn/ 8BBn/	8d/ 8f/ 8g/	f
=384	=384	=384
4.CC/ 4.C/	4.e-/ 4.g/ 4.ee-/	.
8CC/ 8C/	8e-/ 8g/ 8ee-/	.
4CC/ 4C/	4e-/ 4g/ 4ee-/	.
8r	8r	.
8Bn\ 8d\	8f/ 8g/	pp
=385	=385	=385
4.c\ 4.e-\	4.g/ 4.ee-/	.
8c\ 8e-\	8g/ 8ee-/	.
4c\ 4e-\	4g/ 4ee-/	.
8r	8r	.
8CC#/ 8C#/	8en/ 8g/ 8a/	f
=386	=386	=386
4.DD/ 4.D/	4.f/ 4.a/ 4.ff/	.
8DD/ 8D/	8f/ 8a/ 8ff/	.
4DD/ 4D/	4f/ 4a/ 4ff/	.
8r	8r	.
*clefG2	*	*
8c#/ 8en/	8g/ 8a/	pp
=387	=387	=387
4.d/ 4.f/	4.a\ 4.ff\	.
8d/ 8f/	8a\ 8ff\	.
4d/ 4f/	4a\ 4ff\	.
8r	8r	.
*clefF4	*	*
8DD/ 8D/	8f/ 8a-/ 8b-/	f
=388	=388	=388
4.EE-/ 4.E-/	4.g\ 4.b-\ 4.gg\	.
8EE-/ 8E-/	8g\ 8b-\ 8gg\	.
4EE-/ 4E-/	4g\ 4b-\ 4gg\	.
4r	4r	.
=389	=389	=389
2r	2r	.
4r	4r	.
8r	8r	.
8EE-/ 8E-/	8g\ 8ee-\	.
=390	=390	=390
4.FFF/ 4.FF/	4.a\ 4.cc\ 4.ee-\ 4.aa\	.
8FFF/ 8FF/	8a\ 8cc\ 8ee-\ 8aa\	.
4FFF/ 4FF/	4a\ 4cc\ 4ee-\ 4aa\	.
4r	4r	.
=391	=391	=391
2r	1r	p
4r	.	.
8GGG-/L	.	.
8FFF/J	.	.
=392	=392	=392
8GGG-/L	4r	.
8FFF/	.	.
8GGG-/	8r	.
8FFF/J	8dd\ 8ff\ 8bb-\ 8ddd\	p
8AAA/L	4dd\ 4ff\ 4bb-\ 4ddd\	.
8BBB-/	.	.
8AAA/	8dd'\ 8ff'\ 8bb-'\ 8eee-'\L	.
8BBB-/J	8dd'\ 8ff'\ 8bb-'\ 8ddd'\J	.
=393	=393	=393
*^	*	*
2r	8GGG-/L	4dd'\ 4ff'\ 4bb-'\ 4ddd'\	.
.	8FFF/	.	.
.	8GGG-/	4b-'\ 4dd'\ 4ff'\ 4bb-'\	.
.	8FFF/J	.	.
8GG-/L	2BBB-\	4d'/ 4f'/ 4b-'/ 4dd'/	f
8FF/	.	.	.
8GG-/	.	4B-'/ 4d'/ 4f'/ 4b-'/	.
8FF/J	.	.	.
*v	*v	*	*
=394	=394	=394
8GGG-/L	4.ff\ 4.bb-\ 4.ddd\ 4.fff\	p
8FFF/	.	.
8GGG-/	.	.
8FFF/J	8ff\ 8bb-\ 8ddd\ 8fff\	.
8AAA/L	4ff\ 4bb-\ 4ddd\ 4fff\	.
8BBB-/	.	.
8AAA/	8ff'\ 8bb-'\ 8ddd'\ 8ggg'\L	.
8BBB-/J	8ff'\ 8bb-'\ 8ddd'\ 8fff'\J	.
=395	=395	=395
*^	*	*
8GGG-/L	2r	4ff'\ 4bb-'\ 4ddd'\ 4fff'\	.
8FFF/	.	.	.
8GGG-/	.	4dd'\ 4ff'\ 4bb-'\ 4ddd'\	.
8FFF/J	.	.	.
8GG-/L	2BBB-\	4f'\ 4b-'\ 4dd'\ 4ff'\	f
8FF/	.	.	.
8GG-/	.	4d'\ 4f'\ 4b-'\ 4dd'\	.
8FF/J	.	.	.
=396	=396	=396	=396
8GGG-/L	2r	4ddd'\ 4fff'\	p
8FFF/	.	.	.
8GGG-/	.	4bb-'\ 4ddd'\	.
8FFF/J	.	.	.
8GG-/L	2BBB-\	4dd\ 4ff\	f
8FF/	.	.	.
8GG-/	.	4b-'\ 4dd'\	.
8FF/J	.	.	.
=397	=397	=397	=397
8GGG-/L	2r	4bb-'\ 4ddd'\	p
8FFF/	.	.	.
8GGG-/	.	4ff'\ 4bb-'\	.
8FFF/J	.	.	.
8GG-/L	2BBB-\	4b-'\ 4dd'\	f
8FF/	.	.	.
8GG-/	.	4f'/ 4b-'/	.
8FF/J	.	.	.
=398	=398	=398	=398
8GGG-/L	2r	4ff'\ 4bb-'\	p
8FFF/	.	.	.
8GGG-/	.	4dd'\ 4ff'\	.
8FFF/J	.	.	.
8GG-/L	2BBB-\	4f'/ 4b-'/	f
8FF/	.	.	.
8GG-/	.	4d'/ 4f'/	.
8FF/J	.	.	.
=399	=399	=399	=399
8G-/L	1BB-	1a 1ee-	p
8F/	.	.	.
8G-/	.	.	.
8F/J	.	.	.
8G-/L	.	.	.
8F/	.	.	.
8G-/	.	.	.
8F/J	.	.	.
=400	=400	=400	=400
4r	2r	4dd'\ 4ff'\	p
8GGG-/L	.	4b-'\ 4dd'\	.
8FFF/J	.	.	.
8GG-/L	2BBB-\	4d'/ 4f'/	f
8FF/	.	.	.
8GG-/	.	4B-'/ 4d'/	.
8FF/J	.	.	.
=401	=401	=401	=401
8GGG-/L	2r	4b-'\ 4dd'\	p
8FFF/	.	.	.
8GGG-/	.	4f'/ 4b-'/	.
8FFF/J	.	.	.
8GG-/L	2BBB-\	4B-'/ 4d'/	f
8FF/	.	.	.
8GG-/	.	4F'/ 4B-'/	.
8FF/J	.	.	.
=402	=402	=402	=402
8GGG-/L	2r	4f'/ 4b-'/	p
8FFF/	.	.	.
8GGG-/	.	4d'/ 4f'/	.
8FFF/J	.	.	.
*	*	*clefF4	*clefF4
8GG-/L	2BBB-\	4F'\ 4B-'\	f
8FF/	.	.	.
8GG-/	.	4D'\ 4F'\	.
8FF/J	.	.	.
*	*	*clefG2	*clefG2
=403	=403	=403	=403
8GG-/L	1BBB-	1A 1e-	p
8FF/	.	.	.
8GG-/	.	.	.
8FF/J	.	.	.
8GG-/L	.	.	.
8FF/	.	.	.
8GG-/	.	.	.
8FF/J	.	.	.
*v	*v	*	*
=404	=404	=404
8AA/L	4r	.
8BB-/	.	.
8AA/	8r	.
8BB-/J	8A/ 8e-/ 8g-/	pp
8AA/L	4A'/ 4e-'/ 4g-'/	.
8BB-/	.	.
8AA/	4B-'/ 4d'/ 4f'/	.
8BB-/J	.	.
=405	=405	=405
*^	*	*
8GG-/L	1BBB-	4r	.
8FF/	.	.	.
8GG-/	.	8r	.
8FF/J	.	8G-/ 8A/ 8c/ 8e-/	.
8GG-/L	.	4G-'/ 4A'/ 4c'/ 4e-'/	.
8FF/	.	.	.
8GG-/	.	4F'/ 4B-'/ 4d'/	.
8FF/J	.	.	.
*v	*v	*	*
=406	=406	=406
8AAA/L	4r	.
8BBB-/	.	.
8AAA/	8r	.
8BBB-/J	8G-/ 8A/ 8c/ 8e-/	.
8AAA/L	4G-'/ 4A'/ 4c'/ 4e-'/	.
8BBB-/	.	.
8AAA/	4F'/ 4B-'/ 4d'/	.
8BBB-/J	.	.
*	*clefF4	*clefF4
=407	=407	=407
8GGG-/L	4r	.
8FFF/	.	.
8GGG-/	8r	.
8FFF/J	8E-\ 8G-\ 8A\ 8c\	.
8GGG-/L	4E-'\ 4G-'\ 4A'\ 4c'\	.
8FFF/	.	.
8BBB-/ 8FF/	4D'\ 4F'\ 4B-'\	pp
8FFF/J	.	.
=408	=408	=408
8BBB-/ 8FF/L	4r	.
8FFF/	.	.
8BBB-/ 8FF/	8r	.
8FFF/J	8D\ 8F\ 8B-\ 8d\	.
8BBB-/ 8FF/L	4D'\ 4F'\ 4B-'\ 4d'\	.
8FFF/	.	.
8BBB-/ 8FF/	4D'\ 4F'\ 4B-'\	.
8FFF/J	.	.
=409	=409	=409
8FF/L	4r	.
8BBB-/	.	.
8FF/	4D'\ 4F'\ 4B-'\ 4d'\	.
8BBB-/J	.	.
8FF/L	2r	.
8BBB-/	.	.
8FF/ 8BB-/	.	.
8BBB-/J	.	.
*	*clefG2	*clefG2
=410	=410	=410
8FF/ 8BB-/L	2r	.
8BBB-/	.	.
8FF/ 8BB-/	.	.
8BBB-/J	.	.
*	*8va	*
4BB-\ 4D\ 4F\ 4B-\	4bb-\ 4ddd\ 4fff\ 4bbb-\	ff
*	*X8va	*
4r	4r	.
=411	=411	=411
1BBB-; 1BB-;	1B-; 1b-;	.
==	==	==
*-	*-	*-
!!!ENC: Craig Stuart Sapp
!!!END: 2005/08/04/
!!!EEV: 2014/07/13/ (added ottavas)
